; h_cell design
; Generated by generate_h_cell.py
; CTS: 150
; A: 0.15
; B: 0.25
; alpha: 1
; y - pore_size: 1.1
; x - pore_size: 1.1
; Y_repetitions: 12
; X_repetitions: 12
; layers: 10
; total_x: 13.200000000000001
; total_y: 13.200000000000001
; start gcode
; Relative positioning
G91
; start at bottom-left corner
G0 X0 Y0

; START scaffold 1/4
; Stabilization line
G0 X13.200000000000001 F150
G0 Y0.3 F150
G0 X-13.200000000000001 F150
G0 Y0.3 F150

G0 X13.200000000000001 F150
G0 Y0.3 F150
G0 X-13.200000000000001 F150
G0 Y0.3 F150

G0 X13.200000000000001 F150
G0 Y0.3 F150
G0 X-13.200000000000001 F150
G0 Y0.3 F150

G0 X13.200000000000001 F150
G0 Y0.3 F150
G0 X-13.200000000000001 F150
G0 Y0.3 F150

G0 X13.200000000000001 F150
G0 Y0.3 F150
G0 X-13.200000000000001 F150
G0 Y0.3 F150

G0 Y0.6 F150


; START layer 1/10
; START Printing horizontally
G1 X0.55 F150.0
G1 Y-0.3 F150.0
G1 X0.55 F150.0
G1 Y0.3 F150.0
G1 X0.55 F150.0
G1 Y-0.3 F150.0
G1 X0.55 F150.0
G1 Y0.3 F150.0
G1 X0.55 F150.0
G1 Y-0.3 F150.0
G1 X0.55 F150.0
G1 Y0.3 F150.0
G1 X0.55 F150.0
G1 Y-0.3 F150.0
G1 X0.55 F150.0
G1 Y0.3 F150.0
G1 X0.55 F150.0
G1 Y-0.3 F150.0
G1 X0.55 F150.0
G1 Y0.3 F150.0
G1 X0.55 F150.0
G1 Y-0.3 F150.0
G1 X0.55 F150.0
G1 Y0.3 F150.0
G1 X0.55 F150.0
G1 Y-0.3 F150.0
G1 X0.55 F150.0
G1 Y0.3 F150.0
G1 X0.55 F150.0
G1 Y-0.3 F150.0
G1 X0.55 F150.0
G1 Y0.3 F150.0
G1 X0.55 F150.0
G1 Y-0.3 F150.0
G1 X0.55 F150.0
G1 Y0.3 F150.0
G1 X0.55 F150.0
G1 Y-0.3 F150.0
G1 X0.55 F150.0
G1 Y0.3 F150.0
G1 X0.55 F150.0
G1 Y-0.3 F150.0
G1 X0.55 F150.0
G1 Y0.3 F150.0
G1 X0.55 F150.0
G1 Y-0.3 F150.0
G1 X0.55 F150.0
G1 Y0.3 F150.0
G1 X0.55 F150.0
G1 Y0.25 F150.0
G1 X-0.55 F150.0
G1 Y0.3 F150.0
G1 X-0.55 F150.0
G1 Y-0.3 F150.0
G1 X-0.55 F150.0
G1 Y0.3 F150.0
G1 X-0.55 F150.0
G1 Y-0.3 F150.0
G1 X-0.55 F150.0
G1 Y0.3 F150.0
G1 X-0.55 F150.0
G1 Y-0.3 F150.0
G1 X-0.55 F150.0
G1 Y0.3 F150.0
G1 X-0.55 F150.0
G1 Y-0.3 F150.0
G1 X-0.55 F150.0
G1 Y0.3 F150.0
G1 X-0.55 F150.0
G1 Y-0.3 F150.0
G1 X-0.55 F150.0
G1 Y0.3 F150.0
G1 X-0.55 F150.0
G1 Y-0.3 F150.0
G1 X-0.55 F150.0
G1 Y0.3 F150.0
G1 X-0.55 F150.0
G1 Y-0.3 F150.0
G1 X-0.55 F150.0
G1 Y0.3 F150.0
G1 X-0.55 F150.0
G1 Y-0.3 F150.0
G1 X-0.55 F150.0
G1 Y0.3 F150.0
G1 X-0.55 F150.0
G1 Y-0.3 F150.0
G1 X-0.55 F150.0
G1 Y0.3 F150.0
G1 X-0.55 F150.0
G1 Y-0.3 F150.0
G1 X-0.55 F150.0
G1 Y0.3 F150.0
G1 X-0.55 F150.0
G1 Y-0.3 F150.0
G1 X-0.55 F150.0
G1 Y0.3 F150.0
G1 X-0.55 F150.0
G1 Y-0.3 F150.0
G1 X-0.55 F150.0
G1 Y0.85 F150.0
G1 X0.55 F150.0
G1 Y-0.3 F150.0
G1 X0.55 F150.0
G1 Y0.3 F150.0
G1 X0.55 F150.0
G1 Y-0.3 F150.0
G1 X0.55 F150.0
G1 Y0.3 F150.0
G1 X0.55 F150.0
G1 Y-0.3 F150.0
G1 X0.55 F150.0
G1 Y0.3 F150.0
G1 X0.55 F150.0
G1 Y-0.3 F150.0
G1 X0.55 F150.0
G1 Y0.3 F150.0
G1 X0.55 F150.0
G1 Y-0.3 F150.0
G1 X0.55 F150.0
G1 Y0.3 F150.0
G1 X0.55 F150.0
G1 Y-0.3 F150.0
G1 X0.55 F150.0
G1 Y0.3 F150.0
G1 X0.55 F150.0
G1 Y-0.3 F150.0
G1 X0.55 F150.0
G1 Y0.3 F150.0
G1 X0.55 F150.0
G1 Y-0.3 F150.0
G1 X0.55 F150.0
G1 Y0.3 F150.0
G1 X0.55 F150.0
G1 Y-0.3 F150.0
G1 X0.55 F150.0
G1 Y0.3 F150.0
G1 X0.55 F150.0
G1 Y-0.3 F150.0
G1 X0.55 F150.0
G1 Y0.3 F150.0
G1 X0.55 F150.0
G1 Y-0.3 F150.0
G1 X0.55 F150.0
G1 Y0.3 F150.0
G1 X0.55 F150.0
G1 Y-0.3 F150.0
G1 X0.55 F150.0
G1 Y0.3 F150.0
G1 X0.55 F150.0
G1 Y0.25 F150.0
G1 X-0.55 F150.0
G1 Y0.3 F150.0
G1 X-0.55 F150.0
G1 Y-0.3 F150.0
G1 X-0.55 F150.0
G1 Y0.3 F150.0
G1 X-0.55 F150.0
G1 Y-0.3 F150.0
G1 X-0.55 F150.0
G1 Y0.3 F150.0
G1 X-0.55 F150.0
G1 Y-0.3 F150.0
G1 X-0.55 F150.0
G1 Y0.3 F150.0
G1 X-0.55 F150.0
G1 Y-0.3 F150.0
G1 X-0.55 F150.0
G1 Y0.3 F150.0
G1 X-0.55 F150.0
G1 Y-0.3 F150.0
G1 X-0.55 F150.0
G1 Y0.3 F150.0
G1 X-0.55 F150.0
G1 Y-0.3 F150.0
G1 X-0.55 F150.0
G1 Y0.3 F150.0
G1 X-0.55 F150.0
G1 Y-0.3 F150.0
G1 X-0.55 F150.0
G1 Y0.3 F150.0
G1 X-0.55 F150.0
G1 Y-0.3 F150.0
G1 X-0.55 F150.0
G1 Y0.3 F150.0
G1 X-0.55 F150.0
G1 Y-0.3 F150.0
G1 X-0.55 F150.0
G1 Y0.3 F150.0
G1 X-0.55 F150.0
G1 Y-0.3 F150.0
G1 X-0.55 F150.0
G1 Y0.3 F150.0
G1 X-0.55 F150.0
G1 Y-0.3 F150.0
G1 X-0.55 F150.0
G1 Y0.3 F150.0
G1 X-0.55 F150.0
G1 Y-0.3 F150.0
G1 X-0.55 F150.0
G1 Y0.85 F150.0
G1 X0.55 F150.0
G1 Y-0.3 F150.0
G1 X0.55 F150.0
G1 Y0.3 F150.0
G1 X0.55 F150.0
G1 Y-0.3 F150.0
G1 X0.55 F150.0
G1 Y0.3 F150.0
G1 X0.55 F150.0
G1 Y-0.3 F150.0
G1 X0.55 F150.0
G1 Y0.3 F150.0
G1 X0.55 F150.0
G1 Y-0.3 F150.0
G1 X0.55 F150.0
G1 Y0.3 F150.0
G1 X0.55 F150.0
G1 Y-0.3 F150.0
G1 X0.55 F150.0
G1 Y0.3 F150.0
G1 X0.55 F150.0
G1 Y-0.3 F150.0
G1 X0.55 F150.0
G1 Y0.3 F150.0
G1 X0.55 F150.0
G1 Y-0.3 F150.0
G1 X0.55 F150.0
G1 Y0.3 F150.0
G1 X0.55 F150.0
G1 Y-0.3 F150.0
G1 X0.55 F150.0
G1 Y0.3 F150.0
G1 X0.55 F150.0
G1 Y-0.3 F150.0
G1 X0.55 F150.0
G1 Y0.3 F150.0
G1 X0.55 F150.0
G1 Y-0.3 F150.0
G1 X0.55 F150.0
G1 Y0.3 F150.0
G1 X0.55 F150.0
G1 Y-0.3 F150.0
G1 X0.55 F150.0
G1 Y0.3 F150.0
G1 X0.55 F150.0
G1 Y-0.3 F150.0
G1 X0.55 F150.0
G1 Y0.3 F150.0
G1 X0.55 F150.0
G1 Y0.25 F150.0
G1 X-0.55 F150.0
G1 Y0.3 F150.0
G1 X-0.55 F150.0
G1 Y-0.3 F150.0
G1 X-0.55 F150.0
G1 Y0.3 F150.0
G1 X-0.55 F150.0
G1 Y-0.3 F150.0
G1 X-0.55 F150.0
G1 Y0.3 F150.0
G1 X-0.55 F150.0
G1 Y-0.3 F150.0
G1 X-0.55 F150.0
G1 Y0.3 F150.0
G1 X-0.55 F150.0
G1 Y-0.3 F150.0
G1 X-0.55 F150.0
G1 Y0.3 F150.0
G1 X-0.55 F150.0
G1 Y-0.3 F150.0
G1 X-0.55 F150.0
G1 Y0.3 F150.0
G1 X-0.55 F150.0
G1 Y-0.3 F150.0
G1 X-0.55 F150.0
G1 Y0.3 F150.0
G1 X-0.55 F150.0
G1 Y-0.3 F150.0
G1 X-0.55 F150.0
G1 Y0.3 F150.0
G1 X-0.55 F150.0
G1 Y-0.3 F150.0
G1 X-0.55 F150.0
G1 Y0.3 F150.0
G1 X-0.55 F150.0
G1 Y-0.3 F150.0
G1 X-0.55 F150.0
G1 Y0.3 F150.0
G1 X-0.55 F150.0
G1 Y-0.3 F150.0
G1 X-0.55 F150.0
G1 Y0.3 F150.0
G1 X-0.55 F150.0
G1 Y-0.3 F150.0
G1 X-0.55 F150.0
G1 Y0.3 F150.0
G1 X-0.55 F150.0
G1 Y-0.3 F150.0
G1 X-0.55 F150.0
G1 Y0.85 F150.0
G1 X0.55 F150.0
G1 Y-0.3 F150.0
G1 X0.55 F150.0
G1 Y0.3 F150.0
G1 X0.55 F150.0
G1 Y-0.3 F150.0
G1 X0.55 F150.0
G1 Y0.3 F150.0
G1 X0.55 F150.0
G1 Y-0.3 F150.0
G1 X0.55 F150.0
G1 Y0.3 F150.0
G1 X0.55 F150.0
G1 Y-0.3 F150.0
G1 X0.55 F150.0
G1 Y0.3 F150.0
G1 X0.55 F150.0
G1 Y-0.3 F150.0
G1 X0.55 F150.0
G1 Y0.3 F150.0
G1 X0.55 F150.0
G1 Y-0.3 F150.0
G1 X0.55 F150.0
G1 Y0.3 F150.0
G1 X0.55 F150.0
G1 Y-0.3 F150.0
G1 X0.55 F150.0
G1 Y0.3 F150.0
G1 X0.55 F150.0
G1 Y-0.3 F150.0
G1 X0.55 F150.0
G1 Y0.3 F150.0
G1 X0.55 F150.0
G1 Y-0.3 F150.0
G1 X0.55 F150.0
G1 Y0.3 F150.0
G1 X0.55 F150.0
G1 Y-0.3 F150.0
G1 X0.55 F150.0
G1 Y0.3 F150.0
G1 X0.55 F150.0
G1 Y-0.3 F150.0
G1 X0.55 F150.0
G1 Y0.3 F150.0
G1 X0.55 F150.0
G1 Y-0.3 F150.0
G1 X0.55 F150.0
G1 Y0.3 F150.0
G1 X0.55 F150.0
G1 Y0.25 F150.0
G1 X-0.55 F150.0
G1 Y0.3 F150.0
G1 X-0.55 F150.0
G1 Y-0.3 F150.0
G1 X-0.55 F150.0
G1 Y0.3 F150.0
G1 X-0.55 F150.0
G1 Y-0.3 F150.0
G1 X-0.55 F150.0
G1 Y0.3 F150.0
G1 X-0.55 F150.0
G1 Y-0.3 F150.0
G1 X-0.55 F150.0
G1 Y0.3 F150.0
G1 X-0.55 F150.0
G1 Y-0.3 F150.0
G1 X-0.55 F150.0
G1 Y0.3 F150.0
G1 X-0.55 F150.0
G1 Y-0.3 F150.0
G1 X-0.55 F150.0
G1 Y0.3 F150.0
G1 X-0.55 F150.0
G1 Y-0.3 F150.0
G1 X-0.55 F150.0
G1 Y0.3 F150.0
G1 X-0.55 F150.0
G1 Y-0.3 F150.0
G1 X-0.55 F150.0
G1 Y0.3 F150.0
G1 X-0.55 F150.0
G1 Y-0.3 F150.0
G1 X-0.55 F150.0
G1 Y0.3 F150.0
G1 X-0.55 F150.0
G1 Y-0.3 F150.0
G1 X-0.55 F150.0
G1 Y0.3 F150.0
G1 X-0.55 F150.0
G1 Y-0.3 F150.0
G1 X-0.55 F150.0
G1 Y0.3 F150.0
G1 X-0.55 F150.0
G1 Y-0.3 F150.0
G1 X-0.55 F150.0
G1 Y0.3 F150.0
G1 X-0.55 F150.0
G1 Y-0.3 F150.0
G1 X-0.55 F150.0
G1 Y0.85 F150.0
G1 X0.55 F150.0
G1 Y-0.3 F150.0
G1 X0.55 F150.0
G1 Y0.3 F150.0
G1 X0.55 F150.0
G1 Y-0.3 F150.0
G1 X0.55 F150.0
G1 Y0.3 F150.0
G1 X0.55 F150.0
G1 Y-0.3 F150.0
G1 X0.55 F150.0
G1 Y0.3 F150.0
G1 X0.55 F150.0
G1 Y-0.3 F150.0
G1 X0.55 F150.0
G1 Y0.3 F150.0
G1 X0.55 F150.0
G1 Y-0.3 F150.0
G1 X0.55 F150.0
G1 Y0.3 F150.0
G1 X0.55 F150.0
G1 Y-0.3 F150.0
G1 X0.55 F150.0
G1 Y0.3 F150.0
G1 X0.55 F150.0
G1 Y-0.3 F150.0
G1 X0.55 F150.0
G1 Y0.3 F150.0
G1 X0.55 F150.0
G1 Y-0.3 F150.0
G1 X0.55 F150.0
G1 Y0.3 F150.0
G1 X0.55 F150.0
G1 Y-0.3 F150.0
G1 X0.55 F150.0
G1 Y0.3 F150.0
G1 X0.55 F150.0
G1 Y-0.3 F150.0
G1 X0.55 F150.0
G1 Y0.3 F150.0
G1 X0.55 F150.0
G1 Y-0.3 F150.0
G1 X0.55 F150.0
G1 Y0.3 F150.0
G1 X0.55 F150.0
G1 Y-0.3 F150.0
G1 X0.55 F150.0
G1 Y0.3 F150.0
G1 X0.55 F150.0
G1 Y0.25 F150.0
G1 X-0.55 F150.0
G1 Y0.3 F150.0
G1 X-0.55 F150.0
G1 Y-0.3 F150.0
G1 X-0.55 F150.0
G1 Y0.3 F150.0
G1 X-0.55 F150.0
G1 Y-0.3 F150.0
G1 X-0.55 F150.0
G1 Y0.3 F150.0
G1 X-0.55 F150.0
G1 Y-0.3 F150.0
G1 X-0.55 F150.0
G1 Y0.3 F150.0
G1 X-0.55 F150.0
G1 Y-0.3 F150.0
G1 X-0.55 F150.0
G1 Y0.3 F150.0
G1 X-0.55 F150.0
G1 Y-0.3 F150.0
G1 X-0.55 F150.0
G1 Y0.3 F150.0
G1 X-0.55 F150.0
G1 Y-0.3 F150.0
G1 X-0.55 F150.0
G1 Y0.3 F150.0
G1 X-0.55 F150.0
G1 Y-0.3 F150.0
G1 X-0.55 F150.0
G1 Y0.3 F150.0
G1 X-0.55 F150.0
G1 Y-0.3 F150.0
G1 X-0.55 F150.0
G1 Y0.3 F150.0
G1 X-0.55 F150.0
G1 Y-0.3 F150.0
G1 X-0.55 F150.0
G1 Y0.3 F150.0
G1 X-0.55 F150.0
G1 Y-0.3 F150.0
G1 X-0.55 F150.0
G1 Y0.3 F150.0
G1 X-0.55 F150.0
G1 Y-0.3 F150.0
G1 X-0.55 F150.0
G1 Y0.3 F150.0
G1 X-0.55 F150.0
G1 Y-0.3 F150.0
G1 X-0.55 F150.0
G1 Y0.85 F150.0
G1 X0.55 F150.0
G1 Y-0.3 F150.0
G1 X0.55 F150.0
G1 Y0.3 F150.0
G1 X0.55 F150.0
G1 Y-0.3 F150.0
G1 X0.55 F150.0
G1 Y0.3 F150.0
G1 X0.55 F150.0
G1 Y-0.3 F150.0
G1 X0.55 F150.0
G1 Y0.3 F150.0
G1 X0.55 F150.0
G1 Y-0.3 F150.0
G1 X0.55 F150.0
G1 Y0.3 F150.0
G1 X0.55 F150.0
G1 Y-0.3 F150.0
G1 X0.55 F150.0
G1 Y0.3 F150.0
G1 X0.55 F150.0
G1 Y-0.3 F150.0
G1 X0.55 F150.0
G1 Y0.3 F150.0
G1 X0.55 F150.0
G1 Y-0.3 F150.0
G1 X0.55 F150.0
G1 Y0.3 F150.0
G1 X0.55 F150.0
G1 Y-0.3 F150.0
G1 X0.55 F150.0
G1 Y0.3 F150.0
G1 X0.55 F150.0
G1 Y-0.3 F150.0
G1 X0.55 F150.0
G1 Y0.3 F150.0
G1 X0.55 F150.0
G1 Y-0.3 F150.0
G1 X0.55 F150.0
G1 Y0.3 F150.0
G1 X0.55 F150.0
G1 Y-0.3 F150.0
G1 X0.55 F150.0
G1 Y0.3 F150.0
G1 X0.55 F150.0
G1 Y-0.3 F150.0
G1 X0.55 F150.0
G1 Y0.3 F150.0
G1 X0.55 F150.0
G1 Y0.25 F150.0
G1 X-0.55 F150.0
G1 Y0.3 F150.0
G1 X-0.55 F150.0
G1 Y-0.3 F150.0
G1 X-0.55 F150.0
G1 Y0.3 F150.0
G1 X-0.55 F150.0
G1 Y-0.3 F150.0
G1 X-0.55 F150.0
G1 Y0.3 F150.0
G1 X-0.55 F150.0
G1 Y-0.3 F150.0
G1 X-0.55 F150.0
G1 Y0.3 F150.0
G1 X-0.55 F150.0
G1 Y-0.3 F150.0
G1 X-0.55 F150.0
G1 Y0.3 F150.0
G1 X-0.55 F150.0
G1 Y-0.3 F150.0
G1 X-0.55 F150.0
G1 Y0.3 F150.0
G1 X-0.55 F150.0
G1 Y-0.3 F150.0
G1 X-0.55 F150.0
G1 Y0.3 F150.0
G1 X-0.55 F150.0
G1 Y-0.3 F150.0
G1 X-0.55 F150.0
G1 Y0.3 F150.0
G1 X-0.55 F150.0
G1 Y-0.3 F150.0
G1 X-0.55 F150.0
G1 Y0.3 F150.0
G1 X-0.55 F150.0
G1 Y-0.3 F150.0
G1 X-0.55 F150.0
G1 Y0.3 F150.0
G1 X-0.55 F150.0
G1 Y-0.3 F150.0
G1 X-0.55 F150.0
G1 Y0.3 F150.0
G1 X-0.55 F150.0
G1 Y-0.3 F150.0
G1 X-0.55 F150.0
G1 Y0.3 F150.0
G1 X-0.55 F150.0
G1 Y-0.3 F150.0
G1 X-0.55 F150.0
G1 Y0.85 F150.0
G1 X0.55 F150.0
G1 Y-0.3 F150.0
G1 X0.55 F150.0
G1 Y0.3 F150.0
G1 X0.55 F150.0
G1 Y-0.3 F150.0
G1 X0.55 F150.0
G1 Y0.3 F150.0
G1 X0.55 F150.0
G1 Y-0.3 F150.0
G1 X0.55 F150.0
G1 Y0.3 F150.0
G1 X0.55 F150.0
G1 Y-0.3 F150.0
G1 X0.55 F150.0
G1 Y0.3 F150.0
G1 X0.55 F150.0
G1 Y-0.3 F150.0
G1 X0.55 F150.0
G1 Y0.3 F150.0
G1 X0.55 F150.0
G1 Y-0.3 F150.0
G1 X0.55 F150.0
G1 Y0.3 F150.0
G1 X0.55 F150.0
G1 Y-0.3 F150.0
G1 X0.55 F150.0
G1 Y0.3 F150.0
G1 X0.55 F150.0
G1 Y-0.3 F150.0
G1 X0.55 F150.0
G1 Y0.3 F150.0
G1 X0.55 F150.0
G1 Y-0.3 F150.0
G1 X0.55 F150.0
G1 Y0.3 F150.0
G1 X0.55 F150.0
G1 Y-0.3 F150.0
G1 X0.55 F150.0
G1 Y0.3 F150.0
G1 X0.55 F150.0
G1 Y-0.3 F150.0
G1 X0.55 F150.0
G1 Y0.3 F150.0
G1 X0.55 F150.0
G1 Y-0.3 F150.0
G1 X0.55 F150.0
G1 Y0.3 F150.0
G1 X0.55 F150.0
G1 Y0.25 F150.0
G1 X-0.55 F150.0
G1 Y0.3 F150.0
G1 X-0.55 F150.0
G1 Y-0.3 F150.0
G1 X-0.55 F150.0
G1 Y0.3 F150.0
G1 X-0.55 F150.0
G1 Y-0.3 F150.0
G1 X-0.55 F150.0
G1 Y0.3 F150.0
G1 X-0.55 F150.0
G1 Y-0.3 F150.0
G1 X-0.55 F150.0
G1 Y0.3 F150.0
G1 X-0.55 F150.0
G1 Y-0.3 F150.0
G1 X-0.55 F150.0
G1 Y0.3 F150.0
G1 X-0.55 F150.0
G1 Y-0.3 F150.0
G1 X-0.55 F150.0
G1 Y0.3 F150.0
G1 X-0.55 F150.0
G1 Y-0.3 F150.0
G1 X-0.55 F150.0
G1 Y0.3 F150.0
G1 X-0.55 F150.0
G1 Y-0.3 F150.0
G1 X-0.55 F150.0
G1 Y0.3 F150.0
G1 X-0.55 F150.0
G1 Y-0.3 F150.0
G1 X-0.55 F150.0
G1 Y0.3 F150.0
G1 X-0.55 F150.0
G1 Y-0.3 F150.0
G1 X-0.55 F150.0
G1 Y0.3 F150.0
G1 X-0.55 F150.0
G1 Y-0.3 F150.0
G1 X-0.55 F150.0
G1 Y0.3 F150.0
G1 X-0.55 F150.0
G1 Y-0.3 F150.0
G1 X-0.55 F150.0
G1 Y0.3 F150.0
G1 X-0.55 F150.0
G1 Y-0.3 F150.0
G1 X-0.55 F150.0
G1 Y0.85 F150.0
G1 X0.55 F150.0
G1 Y-0.3 F150.0
G1 X0.55 F150.0
G1 Y0.3 F150.0
G1 X0.55 F150.0
G1 Y-0.3 F150.0
G1 X0.55 F150.0
G1 Y0.3 F150.0
G1 X0.55 F150.0
G1 Y-0.3 F150.0
G1 X0.55 F150.0
G1 Y0.3 F150.0
G1 X0.55 F150.0
G1 Y-0.3 F150.0
G1 X0.55 F150.0
G1 Y0.3 F150.0
G1 X0.55 F150.0
G1 Y-0.3 F150.0
G1 X0.55 F150.0
G1 Y0.3 F150.0
G1 X0.55 F150.0
G1 Y-0.3 F150.0
G1 X0.55 F150.0
G1 Y0.3 F150.0
G1 X0.55 F150.0
G1 Y-0.3 F150.0
G1 X0.55 F150.0
G1 Y0.3 F150.0
G1 X0.55 F150.0
G1 Y-0.3 F150.0
G1 X0.55 F150.0
G1 Y0.3 F150.0
G1 X0.55 F150.0
G1 Y-0.3 F150.0
G1 X0.55 F150.0
G1 Y0.3 F150.0
G1 X0.55 F150.0
G1 Y-0.3 F150.0
G1 X0.55 F150.0
G1 Y0.3 F150.0
G1 X0.55 F150.0
G1 Y-0.3 F150.0
G1 X0.55 F150.0
G1 Y0.3 F150.0
G1 X0.55 F150.0
G1 Y-0.3 F150.0
G1 X0.55 F150.0
G1 Y0.3 F150.0
G1 X0.55 F150.0
G1 Y0.25 F150.0
G1 X-0.55 F150.0
G1 Y0.3 F150.0
G1 X-0.55 F150.0
G1 Y-0.3 F150.0
G1 X-0.55 F150.0
G1 Y0.3 F150.0
G1 X-0.55 F150.0
G1 Y-0.3 F150.0
G1 X-0.55 F150.0
G1 Y0.3 F150.0
G1 X-0.55 F150.0
G1 Y-0.3 F150.0
G1 X-0.55 F150.0
G1 Y0.3 F150.0
G1 X-0.55 F150.0
G1 Y-0.3 F150.0
G1 X-0.55 F150.0
G1 Y0.3 F150.0
G1 X-0.55 F150.0
G1 Y-0.3 F150.0
G1 X-0.55 F150.0
G1 Y0.3 F150.0
G1 X-0.55 F150.0
G1 Y-0.3 F150.0
G1 X-0.55 F150.0
G1 Y0.3 F150.0
G1 X-0.55 F150.0
G1 Y-0.3 F150.0
G1 X-0.55 F150.0
G1 Y0.3 F150.0
G1 X-0.55 F150.0
G1 Y-0.3 F150.0
G1 X-0.55 F150.0
G1 Y0.3 F150.0
G1 X-0.55 F150.0
G1 Y-0.3 F150.0
G1 X-0.55 F150.0
G1 Y0.3 F150.0
G1 X-0.55 F150.0
G1 Y-0.3 F150.0
G1 X-0.55 F150.0
G1 Y0.3 F150.0
G1 X-0.55 F150.0
G1 Y-0.3 F150.0
G1 X-0.55 F150.0
G1 Y0.3 F150.0
G1 X-0.55 F150.0
G1 Y-0.3 F150.0
G1 X-0.55 F150.0
G1 Y0.85 F150.0
G1 X0.55 F150.0
G1 Y-0.3 F150.0
G1 X0.55 F150.0
G1 Y0.3 F150.0
G1 X0.55 F150.0
G1 Y-0.3 F150.0
G1 X0.55 F150.0
G1 Y0.3 F150.0
G1 X0.55 F150.0
G1 Y-0.3 F150.0
G1 X0.55 F150.0
G1 Y0.3 F150.0
G1 X0.55 F150.0
G1 Y-0.3 F150.0
G1 X0.55 F150.0
G1 Y0.3 F150.0
G1 X0.55 F150.0
G1 Y-0.3 F150.0
G1 X0.55 F150.0
G1 Y0.3 F150.0
G1 X0.55 F150.0
G1 Y-0.3 F150.0
G1 X0.55 F150.0
G1 Y0.3 F150.0
G1 X0.55 F150.0
G1 Y-0.3 F150.0
G1 X0.55 F150.0
G1 Y0.3 F150.0
G1 X0.55 F150.0
G1 Y-0.3 F150.0
G1 X0.55 F150.0
G1 Y0.3 F150.0
G1 X0.55 F150.0
G1 Y-0.3 F150.0
G1 X0.55 F150.0
G1 Y0.3 F150.0
G1 X0.55 F150.0
G1 Y-0.3 F150.0
G1 X0.55 F150.0
G1 Y0.3 F150.0
G1 X0.55 F150.0
G1 Y-0.3 F150.0
G1 X0.55 F150.0
G1 Y0.3 F150.0
G1 X0.55 F150.0
G1 Y-0.3 F150.0
G1 X0.55 F150.0
G1 Y0.3 F150.0
G1 X0.55 F150.0
G1 Y0.25 F150.0
G1 X-0.55 F150.0
G1 Y0.3 F150.0
G1 X-0.55 F150.0
G1 Y-0.3 F150.0
G1 X-0.55 F150.0
G1 Y0.3 F150.0
G1 X-0.55 F150.0
G1 Y-0.3 F150.0
G1 X-0.55 F150.0
G1 Y0.3 F150.0
G1 X-0.55 F150.0
G1 Y-0.3 F150.0
G1 X-0.55 F150.0
G1 Y0.3 F150.0
G1 X-0.55 F150.0
G1 Y-0.3 F150.0
G1 X-0.55 F150.0
G1 Y0.3 F150.0
G1 X-0.55 F150.0
G1 Y-0.3 F150.0
G1 X-0.55 F150.0
G1 Y0.3 F150.0
G1 X-0.55 F150.0
G1 Y-0.3 F150.0
G1 X-0.55 F150.0
G1 Y0.3 F150.0
G1 X-0.55 F150.0
G1 Y-0.3 F150.0
G1 X-0.55 F150.0
G1 Y0.3 F150.0
G1 X-0.55 F150.0
G1 Y-0.3 F150.0
G1 X-0.55 F150.0
G1 Y0.3 F150.0
G1 X-0.55 F150.0
G1 Y-0.3 F150.0
G1 X-0.55 F150.0
G1 Y0.3 F150.0
G1 X-0.55 F150.0
G1 Y-0.3 F150.0
G1 X-0.55 F150.0
G1 Y0.3 F150.0
G1 X-0.55 F150.0
G1 Y-0.3 F150.0
G1 X-0.55 F150.0
G1 Y0.3 F150.0
G1 X-0.55 F150.0
G1 Y-0.3 F150.0
G1 X-0.55 F150.0
G1 Y0.85 F150.0
G1 X0.55 F150.0
G1 Y-0.3 F150.0
G1 X0.55 F150.0
G1 Y0.3 F150.0
G1 X0.55 F150.0
G1 Y-0.3 F150.0
G1 X0.55 F150.0
G1 Y0.3 F150.0
G1 X0.55 F150.0
G1 Y-0.3 F150.0
G1 X0.55 F150.0
G1 Y0.3 F150.0
G1 X0.55 F150.0
G1 Y-0.3 F150.0
G1 X0.55 F150.0
G1 Y0.3 F150.0
G1 X0.55 F150.0
G1 Y-0.3 F150.0
G1 X0.55 F150.0
G1 Y0.3 F150.0
G1 X0.55 F150.0
G1 Y-0.3 F150.0
G1 X0.55 F150.0
G1 Y0.3 F150.0
G1 X0.55 F150.0
G1 Y-0.3 F150.0
G1 X0.55 F150.0
G1 Y0.3 F150.0
G1 X0.55 F150.0
G1 Y-0.3 F150.0
G1 X0.55 F150.0
G1 Y0.3 F150.0
G1 X0.55 F150.0
G1 Y-0.3 F150.0
G1 X0.55 F150.0
G1 Y0.3 F150.0
G1 X0.55 F150.0
G1 Y-0.3 F150.0
G1 X0.55 F150.0
G1 Y0.3 F150.0
G1 X0.55 F150.0
G1 Y-0.3 F150.0
G1 X0.55 F150.0
G1 Y0.3 F150.0
G1 X0.55 F150.0
G1 Y-0.3 F150.0
