; S regular Inverted
; Generated by generate_s-inverted-small.py
; CTS: 150
; A: 0.25
; B: 0.1875
; pore_size: 0.5
; uturn_length: 1.0
; uturn_radius: 0.5
; Y_repetitions: 24
; X_repetitions: 24
; total_layers: 10
; total_x: 12.0
; total_y: 12.0
; start gcode
; Relative positioning
G91
; start at bottom-left corner
G0 X0 Y0

; scaffold: 1, totol_scaffolds: 1
; Stabilization line
G0 X12.0 F150
G0 Y0.3 F150
G0 X-12.0 F150
G0 Y0.3 F150

G0 X12.0 F150
G0 Y0.3 F150
G0 X-12.0 F150
G0 Y0.3 F150

G0 X12.0 F150
G0 Y0.3 F150
G0 X-12.0 F150
G0 Y0.3 F150

G0 X12.0 F150
G0 Y0.3 F150
G0 X-12.0 F150
G0 Y0.3 F150

G0 X12.0 F150
G0 Y0.3 F150
G0 X-12.0 F150
G0 Y0.3 F150

G0 Y0.6 F150

; layer: 0
; START layer 1/10
; START Printing horizontally
; G1 X0 F150
G1 X0.25 Y-0.187500 F150
G1 X0.25 Y0.187500 F150
G1 X0.25 Y0.187500 F150
G1 X0.25 Y-0.187500 F150
G1 X0.25 Y-0.187500 F150
G1 X0.25 Y0.187500 F150
G1 X0.25 Y0.187500 F150
G1 X0.25 Y-0.187500 F150
G1 X0.25 Y-0.187500 F150
G1 X0.25 Y0.187500 F150
G1 X0.25 Y0.187500 F150
G1 X0.25 Y-0.187500 F150
G1 X0.25 Y-0.187500 F150
G1 X0.25 Y0.187500 F150
G1 X0.25 Y0.187500 F150
G1 X0.25 Y-0.187500 F150
G1 X0.25 Y-0.187500 F150
G1 X0.25 Y0.187500 F150
G1 X0.25 Y0.187500 F150
G1 X0.25 Y-0.187500 F150
G1 X0.25 Y-0.187500 F150
G1 X0.25 Y0.187500 F150
G1 X0.25 Y0.187500 F150
G1 X0.25 Y-0.187500 F150
G1 X0.25 Y-0.187500 F150
G1 X0.25 Y0.187500 F150
G1 X0.25 Y0.187500 F150
G1 X0.25 Y-0.187500 F150
G1 X0.25 Y-0.187500 F150
G1 X0.25 Y0.187500 F150
G1 X0.25 Y0.187500 F150
G1 X0.25 Y-0.187500 F150
G1 X0.25 Y-0.187500 F150
G1 X0.25 Y0.187500 F150
G1 X0.25 Y0.187500 F150
G1 X0.25 Y-0.187500 F150
G1 X0.25 Y-0.187500 F150
G1 X0.25 Y0.187500 F150
G1 X0.25 Y0.187500 F150
G1 X0.25 Y-0.187500 F150
G1 X0.25 Y-0.187500 F150
G1 X0.25 Y0.187500 F150
G1 X0.25 Y0.187500 F150
G1 X0.25 Y-0.187500 F150
G1 X0.25 Y-0.187500 F150
G1 X0.25 Y0.187500 F150
G1 X0.25 Y0.187500 F150
G1 X0.25 Y-0.187500 F150
G1 X1.0 F150
G3 Y0.5 I0.5 J0.25 F150
G1 X-1.0 F150
; G1 X0 F150
G1 X-0.25 Y-0.187500 F150
G1 X-0.25 Y0.187500 F150
G1 X-0.25 Y0.187500 F150
G1 X-0.25 Y-0.187500 F150
G1 X-0.25 Y-0.187500 F150
G1 X-0.25 Y0.187500 F150
G1 X-0.25 Y0.187500 F150
G1 X-0.25 Y-0.187500 F150
G1 X-0.25 Y-0.187500 F150
G1 X-0.25 Y0.187500 F150
G1 X-0.25 Y0.187500 F150
G1 X-0.25 Y-0.187500 F150
G1 X-0.25 Y-0.187500 F150
G1 X-0.25 Y0.187500 F150
G1 X-0.25 Y0.187500 F150
G1 X-0.25 Y-0.187500 F150
G1 X-0.25 Y-0.187500 F150
G1 X-0.25 Y0.187500 F150
G1 X-0.25 Y0.187500 F150
G1 X-0.25 Y-0.187500 F150
G1 X-0.25 Y-0.187500 F150
G1 X-0.25 Y0.187500 F150
G1 X-0.25 Y0.187500 F150
G1 X-0.25 Y-0.187500 F150
G1 X-0.25 Y-0.187500 F150
G1 X-0.25 Y0.187500 F150
G1 X-0.25 Y0.187500 F150
G1 X-0.25 Y-0.187500 F150
G1 X-0.25 Y-0.187500 F150
G1 X-0.25 Y0.187500 F150
G1 X-0.25 Y0.187500 F150
G1 X-0.25 Y-0.187500 F150
G1 X-0.25 Y-0.187500 F150
G1 X-0.25 Y0.187500 F150
G1 X-0.25 Y0.187500 F150
G1 X-0.25 Y-0.187500 F150
G1 X-0.25 Y-0.187500 F150
G1 X-0.25 Y0.187500 F150
G1 X-0.25 Y0.187500 F150
G1 X-0.25 Y-0.187500 F150
G1 X-0.25 Y-0.187500 F150
G1 X-0.25 Y0.187500 F150
G1 X-0.25 Y0.187500 F150
G1 X-0.25 Y-0.187500 F150
G1 X-0.25 Y-0.187500 F150
G1 X-0.25 Y0.187500 F150
G1 X-0.25 Y0.187500 F150
G1 X-0.25 Y-0.187500 F150
G1 X-1.0 F150
G2 Y0.5 I-0.5 J0.25 F150
G1 X1.0 F150
; G1 X0 F150
G1 X0.25 Y-0.187500 F150
G1 X0.25 Y0.187500 F150
G1 X0.25 Y0.187500 F150
G1 X0.25 Y-0.187500 F150
G1 X0.25 Y-0.187500 F150
G1 X0.25 Y0.187500 F150
G1 X0.25 Y0.187500 F150
G1 X0.25 Y-0.187500 F150
G1 X0.25 Y-0.187500 F150
G1 X0.25 Y0.187500 F150
G1 X0.25 Y0.187500 F150
G1 X0.25 Y-0.187500 F150
G1 X0.25 Y-0.187500 F150
G1 X0.25 Y0.187500 F150
G1 X0.25 Y0.187500 F150
G1 X0.25 Y-0.187500 F150
G1 X0.25 Y-0.187500 F150
G1 X0.25 Y0.187500 F150
G1 X0.25 Y0.187500 F150
G1 X0.25 Y-0.187500 F150
G1 X0.25 Y-0.187500 F150
G1 X0.25 Y0.187500 F150
G1 X0.25 Y0.187500 F150
G1 X0.25 Y-0.187500 F150
G1 X0.25 Y-0.187500 F150
G1 X0.25 Y0.187500 F150
G1 X0.25 Y0.187500 F150
G1 X0.25 Y-0.187500 F150
G1 X0.25 Y-0.187500 F150
G1 X0.25 Y0.187500 F150
G1 X0.25 Y0.187500 F150
G1 X0.25 Y-0.187500 F150
G1 X0.25 Y-0.187500 F150
G1 X0.25 Y0.187500 F150
G1 X0.25 Y0.187500 F150
G1 X0.25 Y-0.187500 F150
G1 X0.25 Y-0.187500 F150
G1 X0.25 Y0.187500 F150
G1 X0.25 Y0.187500 F150
G1 X0.25 Y-0.187500 F150
G1 X0.25 Y-0.187500 F150
G1 X0.25 Y0.187500 F150
G1 X0.25 Y0.187500 F150
G1 X0.25 Y-0.187500 F150
G1 X0.25 Y-0.187500 F150
G1 X0.25 Y0.187500 F150
G1 X0.25 Y0.187500 F150
G1 X0.25 Y-0.187500 F150
G1 X1.0 F150
G3 Y0.5 I0.5 J0.25 F150
G1 X-1.0 F150
; G1 X0 F150
G1 X-0.25 Y-0.187500 F150
G1 X-0.25 Y0.187500 F150
G1 X-0.25 Y0.187500 F150
G1 X-0.25 Y-0.187500 F150
G1 X-0.25 Y-0.187500 F150
G1 X-0.25 Y0.187500 F150
G1 X-0.25 Y0.187500 F150
G1 X-0.25 Y-0.187500 F150
G1 X-0.25 Y-0.187500 F150
G1 X-0.25 Y0.187500 F150
G1 X-0.25 Y0.187500 F150
G1 X-0.25 Y-0.187500 F150
G1 X-0.25 Y-0.187500 F150
G1 X-0.25 Y0.187500 F150
G1 X-0.25 Y0.187500 F150
G1 X-0.25 Y-0.187500 F150
G1 X-0.25 Y-0.187500 F150
G1 X-0.25 Y0.187500 F150
G1 X-0.25 Y0.187500 F150
G1 X-0.25 Y-0.187500 F150
G1 X-0.25 Y-0.187500 F150
G1 X-0.25 Y0.187500 F150
G1 X-0.25 Y0.187500 F150
G1 X-0.25 Y-0.187500 F150
G1 X-0.25 Y-0.187500 F150
G1 X-0.25 Y0.187500 F150
G1 X-0.25 Y0.187500 F150
G1 X-0.25 Y-0.187500 F150
G1 X-0.25 Y-0.187500 F150
G1 X-0.25 Y0.187500 F150
G1 X-0.25 Y0.187500 F150
G1 X-0.25 Y-0.187500 F150
G1 X-0.25 Y-0.187500 F150
G1 X-0.25 Y0.187500 F150
G1 X-0.25 Y0.187500 F150
G1 X-0.25 Y-0.187500 F150
G1 X-0.25 Y-0.187500 F150
G1 X-0.25 Y0.187500 F150
G1 X-0.25 Y0.187500 F150
G1 X-0.25 Y-0.187500 F150
G1 X-0.25 Y-0.187500 F150
G1 X-0.25 Y0.187500 F150
G1 X-0.25 Y0.187500 F150
G1 X-0.25 Y-0.187500 F150
G1 X-0.25 Y-0.187500 F150
G1 X-0.25 Y0.187500 F150
G1 X-0.25 Y0.187500 F150
G1 X-0.25 Y-0.187500 F150
G1 X-1.0 F150
G2 Y0.5 I-0.5 J0.25 F150
G1 X1.0 F150
; G1 X0 F150
G1 X0.25 Y-0.187500 F150
G1 X0.25 Y0.187500 F150
G1 X0.25 Y0.187500 F150
G1 X0.25 Y-0.187500 F150
G1 X0.25 Y-0.187500 F150
G1 X0.25 Y0.187500 F150
G1 X0.25 Y0.187500 F150
G1 X0.25 Y-0.187500 F150
G1 X0.25 Y-0.187500 F150
G1 X0.25 Y0.187500 F150
G1 X0.25 Y0.187500 F150
G1 X0.25 Y-0.187500 F150
G1 X0.25 Y-0.187500 F150
G1 X0.25 Y0.187500 F150
G1 X0.25 Y0.187500 F150
G1 X0.25 Y-0.187500 F150
G1 X0.25 Y-0.187500 F150
G1 X0.25 Y0.187500 F150
G1 X0.25 Y0.187500 F150
G1 X0.25 Y-0.187500 F150
G1 X0.25 Y-0.187500 F150
G1 X0.25 Y0.187500 F150
G1 X0.25 Y0.187500 F150
G1 X0.25 Y-0.187500 F150
G1 X0.25 Y-0.187500 F150
G1 X0.25 Y0.187500 F150
G1 X0.25 Y0.187500 F150
G1 X0.25 Y-0.187500 F150
G1 X0.25 Y-0.187500 F150
G1 X0.25 Y0.187500 F150
G1 X0.25 Y0.187500 F150
G1 X0.25 Y-0.187500 F150
G1 X0.25 Y-0.187500 F150
G1 X0.25 Y0.187500 F150
G1 X0.25 Y0.187500 F150
G1 X0.25 Y-0.187500 F150
G1 X0.25 Y-0.187500 F150
G1 X0.25 Y0.187500 F150
G1 X0.25 Y0.187500 F150
G1 X0.25 Y-0.187500 F150
G1 X0.25 Y-0.187500 F150
G1 X0.25 Y0.187500 F150
G1 X0.25 Y0.187500 F150
G1 X0.25 Y-0.187500 F150
G1 X0.25 Y-0.187500 F150
G1 X0.25 Y0.187500 F150
G1 X0.25 Y0.187500 F150
G1 X0.25 Y-0.187500 F150
G1 X1.0 F150
G3 Y0.5 I0.5 J0.25 F150
G1 X-1.0 F150
; G1 X0 F150
G1 X-0.25 Y-0.187500 F150
G1 X-0.25 Y0.187500 F150
G1 X-0.25 Y0.187500 F150
G1 X-0.25 Y-0.187500 F150
G1 X-0.25 Y-0.187500 F150
G1 X-0.25 Y0.187500 F150
G1 X-0.25 Y0.187500 F150
G1 X-0.25 Y-0.187500 F150
G1 X-0.25 Y-0.187500 F150
G1 X-0.25 Y0.187500 F150
G1 X-0.25 Y0.187500 F150
G1 X-0.25 Y-0.187500 F150
G1 X-0.25 Y-0.187500 F150
G1 X-0.25 Y0.187500 F150
G1 X-0.25 Y0.187500 F150
G1 X-0.25 Y-0.187500 F150
G1 X-0.25 Y-0.187500 F150
G1 X-0.25 Y0.187500 F150
G1 X-0.25 Y0.187500 F150
G1 X-0.25 Y-0.187500 F150
G1 X-0.25 Y-0.187500 F150
G1 X-0.25 Y0.187500 F150
G1 X-0.25 Y0.187500 F150
G1 X-0.25 Y-0.187500 F150
G1 X-0.25 Y-0.187500 F150
G1 X-0.25 Y0.187500 F150
G1 X-0.25 Y0.187500 F150
G1 X-0.25 Y-0.187500 F150
G1 X-0.25 Y-0.187500 F150
G1 X-0.25 Y0.187500 F150
G1 X-0.25 Y0.187500 F150
G1 X-0.25 Y-0.187500 F150
G1 X-0.25 Y-0.187500 F150
G1 X-0.25 Y0.187500 F150
G1 X-0.25 Y0.187500 F150
G1 X-0.25 Y-0.187500 F150
G1 X-0.25 Y-0.187500 F150
G1 X-0.25 Y0.187500 F150
G1 X-0.25 Y0.187500 F150
G1 X-0.25 Y-0.187500 F150
G1 X-0.25 Y-0.187500 F150
G1 X-0.25 Y0.187500 F150
G1 X-0.25 Y0.187500 F150
G1 X-0.25 Y-0.187500 F150
G1 X-0.25 Y-0.187500 F150
G1 X-0.25 Y0.187500 F150
G1 X-0.25 Y0.187500 F150
G1 X-0.25 Y-0.187500 F150
G1 X-1.0 F150
G2 Y0.5 I-0.5 J0.25 F150
G1 X1.0 F150
; G1 X0 F150
G1 X0.25 Y-0.187500 F150
G1 X0.25 Y0.187500 F150
G1 X0.25 Y0.187500 F150
G1 X0.25 Y-0.187500 F150
G1 X0.25 Y-0.187500 F150
G1 X0.25 Y0.187500 F150
G1 X0.25 Y0.187500 F150
G1 X0.25 Y-0.187500 F150
G1 X0.25 Y-0.187500 F150
G1 X0.25 Y0.187500 F150
G1 X0.25 Y0.187500 F150
G1 X0.25 Y-0.187500 F150
G1 X0.25 Y-0.187500 F150
G1 X0.25 Y0.187500 F150
G1 X0.25 Y0.187500 F150
G1 X0.25 Y-0.187500 F150
G1 X0.25 Y-0.187500 F150
G1 X0.25 Y0.187500 F150
G1 X0.25 Y0.187500 F150
G1 X0.25 Y-0.187500 F150
G1 X0.25 Y-0.187500 F150
G1 X0.25 Y0.187500 F150
G1 X0.25 Y0.187500 F150
G1 X0.25 Y-0.187500 F150
G1 X0.25 Y-0.187500 F150
G1 X0.25 Y0.187500 F150
G1 X0.25 Y0.187500 F150
G1 X0.25 Y-0.187500 F150
G1 X0.25 Y-0.187500 F150
G1 X0.25 Y0.187500 F150
G1 X0.25 Y0.187500 F150
G1 X0.25 Y-0.187500 F150
G1 X0.25 Y-0.187500 F150
G1 X0.25 Y0.187500 F150
G1 X0.25 Y0.187500 F150
G1 X0.25 Y-0.187500 F150
G1 X0.25 Y-0.187500 F150
G1 X0.25 Y0.187500 F150
G1 X0.25 Y0.187500 F150
G1 X0.25 Y-0.187500 F150
G1 X0.25 Y-0.187500 F150
G1 X0.25 Y0.187500 F150
G1 X0.25 Y0.187500 F150
G1 X0.25 Y-0.187500 F150
G1 X0.25 Y-0.187500 F150
G1 X0.25 Y0.187500 F150
G1 X0.25 Y0.187500 F150
G1 X0.25 Y-0.187500 F150
G1 X1.0 F150
G3 Y0.5 I0.5 J0.25 F150
G1 X-1.0 F150
; G1 X0 F150
G1 X-0.25 Y-0.187500 F150
G1 X-0.25 Y0.187500 F150
G1 X-0.25 Y0.187500 F150
G1 X-0.25 Y-0.187500 F150
G1 X-0.25 Y-0.187500 F150
G1 X-0.25 Y0.187500 F150
G1 X-0.25 Y0.187500 F150
G1 X-0.25 Y-0.187500 F150
G1 X-0.25 Y-0.187500 F150
G1 X-0.25 Y0.187500 F150
G1 X-0.25 Y0.187500 F150
G1 X-0.25 Y-0.187500 F150
G1 X-0.25 Y-0.187500 F150
G1 X-0.25 Y0.187500 F150
G1 X-0.25 Y0.187500 F150
G1 X-0.25 Y-0.187500 F150
G1 X-0.25 Y-0.187500 F150
G1 X-0.25 Y0.187500 F150
G1 X-0.25 Y0.187500 F150
G1 X-0.25 Y-0.187500 F150
G1 X-0.25 Y-0.187500 F150
G1 X-0.25 Y0.187500 F150
G1 X-0.25 Y0.187500 F150
G1 X-0.25 Y-0.187500 F150
G1 X-0.25 Y-0.187500 F150
G1 X-0.25 Y0.187500 F150
G1 X-0.25 Y0.187500 F150
G1 X-0.25 Y-0.187500 F150
G1 X-0.25 Y-0.187500 F150
G1 X-0.25 Y0.187500 F150
G1 X-0.25 Y0.187500 F150
G1 X-0.25 Y-0.187500 F150
G1 X-0.25 Y-0.187500 F150
G1 X-0.25 Y0.187500 F150
G1 X-0.25 Y0.187500 F150
G1 X-0.25 Y-0.187500 F150
G1 X-0.25 Y-0.187500 F150
G1 X-0.25 Y0.187500 F150
G1 X-0.25 Y0.187500 F150
G1 X-0.25 Y-0.187500 F150
G1 X-0.25 Y-0.187500 F150
G1 X-0.25 Y0.187500 F150
G1 X-0.25 Y0.187500 F150
G1 X-0.25 Y-0.187500 F150
G1 X-0.25 Y-0.187500 F150
G1 X-0.25 Y0.187500 F150
G1 X-0.25 Y0.187500 F150
G1 X-0.25 Y-0.187500 F150
G1 X-1.0 F150
G2 Y0.5 I-0.5 J0.25 F150
G1 X1.0 F150
; G1 X0 F150
G1 X0.25 Y-0.187500 F150
G1 X0.25 Y0.187500 F150
G1 X0.25 Y0.187500 F150
G1 X0.25 Y-0.187500 F150
G1 X0.25 Y-0.187500 F150
G1 X0.25 Y0.187500 F150
G1 X0.25 Y0.187500 F150
G1 X0.25 Y-0.187500 F150
G1 X0.25 Y-0.187500 F150
G1 X0.25 Y0.187500 F150
G1 X0.25 Y0.187500 F150
G1 X0.25 Y-0.187500 F150
G1 X0.25 Y-0.187500 F150
G1 X0.25 Y0.187500 F150
G1 X0.25 Y0.187500 F150
G1 X0.25 Y-0.187500 F150
G1 X0.25 Y-0.187500 F150
G1 X0.25 Y0.187500 F150
G1 X0.25 Y0.187500 F150
G1 X0.25 Y-0.187500 F150
G1 X0.25 Y-0.187500 F150
G1 X0.25 Y0.187500 F150
G1 X0.25 Y0.187500 F150
G1 X0.25 Y-0.187500 F150
G1 X0.25 Y-0.187500 F150
G1 X0.25 Y0.187500 F150
G1 X0.25 Y0.187500 F150
G1 X0.25 Y-0.187500 F150
G1 X0.25 Y-0.187500 F150
G1 X0.25 Y0.187500 F150
G1 X0.25 Y0.187500 F150
G1 X0.25 Y-0.187500 F150
G1 X0.25 Y-0.187500 F150
G1 X0.25 Y0.187500 F150
G1 X0.25 Y0.187500 F150
G1 X0.25 Y-0.187500 F150
G1 X0.25 Y-0.187500 F150
G1 X0.25 Y0.187500 F150
G1 X0.25 Y0.187500 F150
G1 X0.25 Y-0.187500 F150
G1 X0.25 Y-0.187500 F150
G1 X0.25 Y0.187500 F150
G1 X0.25 Y0.187500 F150
G1 X0.25 Y-0.187500 F150
G1 X0.25 Y-0.187500 F150
G1 X0.25 Y0.187500 F150
G1 X0.25 Y0.187500 F150
G1 X0.25 Y-0.187500 F150
G1 X1.0 F150
G3 Y0.5 I0.5 J0.25 F150
G1 X-1.0 F150
; G1 X0 F150
G1 X-0.25 Y-0.187500 F150
G1 X-0.25 Y0.187500 F150
G1 X-0.25 Y0.187500 F150
G1 X-0.25 Y-0.187500 F150
G1 X-0.25 Y-0.187500 F150
G1 X-0.25 Y0.187500 F150
G1 X-0.25 Y0.187500 F150
G1 X-0.25 Y-0.187500 F150
G1 X-0.25 Y-0.187500 F150
G1 X-0.25 Y0.187500 F150
G1 X-0.25 Y0.187500 F150
G1 X-0.25 Y-0.187500 F150
G1 X-0.25 Y-0.187500 F150
G1 X-0.25 Y0.187500 F150
G1 X-0.25 Y0.187500 F150
G1 X-0.25 Y-0.187500 F150
G1 X-0.25 Y-0.187500 F150
G1 X-0.25 Y0.187500 F150
G1 X-0.25 Y0.187500 F150
G1 X-0.25 Y-0.187500 F150
G1 X-0.25 Y-0.187500 F150
G1 X-0.25 Y0.187500 F150
G1 X-0.25 Y0.187500 F150
G1 X-0.25 Y-0.187500 F150
G1 X-0.25 Y-0.187500 F150
G1 X-0.25 Y0.187500 F150
G1 X-0.25 Y0.187500 F150
G1 X-0.25 Y-0.187500 F150
G1 X-0.25 Y-0.187500 F150
G1 X-0.25 Y0.187500 F150
G1 X-0.25 Y0.187500 F150
G1 X-0.25 Y-0.187500 F150
G1 X-0.25 Y-0.187500 F150
G1 X-0.25 Y0.187500 F150
G1 X-0.25 Y0.187500 F150
G1 X-0.25 Y-0.187500 F150
G1 X-0.25 Y-0.187500 F150
G1 X-0.25 Y0.187500 F150
G1 X-0.25 Y0.187500 F150
G1 X-0.25 Y-0.187500 F150
G1 X-0.25 Y-0.187500 F150
G1 X-0.25 Y0.187500 F150
G1 X-0.25 Y0.187500 F150
G1 X-0.25 Y-0.187500 F150
G1 X-0.25 Y-0.187500 F150
G1 X-0.25 Y0.187500 F150
G1 X-0.25 Y0.187500 F150
G1 X-0.25 Y-0.187500 F150
G1 X-1.0 F150
G2 Y0.5 I-0.5 J0.25 F150
G1 X1.0 F150
; G1 X0 F150
G1 X0.25 Y-0.187500 F150
G1 X0.25 Y0.187500 F150
G1 X0.25 Y0.187500 F150
G1 X0.25 Y-0.187500 F150
G1 X0.25 Y-0.187500 F150
G1 X0.25 Y0.187500 F150
G1 X0.25 Y0.187500 F150
G1 X0.25 Y-0.187500 F150
G1 X0.25 Y-0.187500 F150
G1 X0.25 Y0.187500 F150
G1 X0.25 Y0.187500 F150
G1 X0.25 Y-0.187500 F150
G1 X0.25 Y-0.187500 F150
G1 X0.25 Y0.187500 F150
G1 X0.25 Y0.187500 F150
G1 X0.25 Y-0.187500 F150
G1 X0.25 Y-0.187500 F150
G1 X0.25 Y0.187500 F150
G1 X0.25 Y0.187500 F150
G1 X0.25 Y-0.187500 F150
G1 X0.25 Y-0.187500 F150
G1 X0.25 Y0.187500 F150
G1 X0.25 Y0.187500 F150
G1 X0.25 Y-0.187500 F150
G1 X0.25 Y-0.187500 F150
G1 X0.25 Y0.187500 F150
G1 X0.25 Y0.187500 F150
G1 X0.25 Y-0.187500 F150
G1 X0.25 Y-0.187500 F150
G1 X0.25 Y0.187500 F150
G1 X0.25 Y0.187500 F150
G1 X0.25 Y-0.187500 F150
G1 X0.25 Y-0.187500 F150
G1 X0.25 Y0.187500 F150
G1 X0.25 Y0.187500 F150
G1 X0.25 Y-0.187500 F150
G1 X0.25 Y-0.187500 F150
G1 X0.25 Y0.187500 F150
G1 X0.25 Y0.187500 F150
G1 X0.25 Y-0.187500 F150
G1 X0.25 Y-0.187500 F150
G1 X0.25 Y0.187500 F150
G1 X0.25 Y0.187500 F150
G1 X0.25 Y-0.187500 F150
G1 X0.25 Y-0.187500 F150
G1 X0.25 Y0.187500 F150
G1 X0.25 Y0.187500 F150
G1 X0.25 Y-0.187500 F150
G1 X1.0 F150
G3 Y0.5 I0.5 J0.25 F150
G1 X-1.0 F150
; G1 X0 F150
G1 X-0.25 Y-0.187500 F150
G1 X-0.25 Y0.187500 F150
G1 X-0.25 Y0.187500 F150
G1 X-0.25 Y-0.187500 F150
G1 X-0.25 Y-0.187500 F150
G1 X-0.25 Y0.187500 F150
G1 X-0.25 Y0.187500 F150
G1 X-0.25 Y-0.187500 F150
G1 X-0.25 Y-0.187500 F150
G1 X-0.25 Y0.187500 F150
G1 X-0.25 Y0.187500 F150
G1 X-0.25 Y-0.187500 F150
G1 X-0.25 Y-0.187500 F150
G1 X-0.25 Y0.187500 F150
G1 X-0.25 Y0.187500 F150
G1 X-0.25 Y-0.187500 F150
G1 X-0.25 Y-0.187500 F150
G1 X-0.25 Y0.187500 F150
G1 X-0.25 Y0.187500 F150
G1 X-0.25 Y-0.187500 F150
G1 X-0.25 Y-0.187500 F150
G1 X-0.25 Y0.187500 F150
G1 X-0.25 Y0.187500 F150
G1 X-0.25 Y-0.187500 F150
G1 X-0.25 Y-0.187500 F150
G1 X-0.25 Y0.187500 F150
G1 X-0.25 Y0.187500 F150
G1 X-0.25 Y-0.187500 F150
G1 X-0.25 Y-0.187500 F150
G1 X-0.25 Y0.187500 F150
G1 X-0.25 Y0.187500 F150
G1 X-0.25 Y-0.187500 F150
G1 X-0.25 Y-0.187500 F150
G1 X-0.25 Y0.187500 F150
G1 X-0.25 Y0.187500 F150
G1 X-0.25 Y-0.187500 F150
G1 X-0.25 Y-0.187500 F150
G1 X-0.25 Y0.187500 F150
G1 X-0.25 Y0.187500 F150
G1 X-0.25 Y-0.187500 F150
G1 X-0.25 Y-0.187500 F150
G1 X-0.25 Y0.187500 F150
G1 X-0.25 Y0.187500 F150
G1 X-0.25 Y-0.187500 F150
G1 X-0.25 Y-0.187500 F150
G1 X-0.25 Y0.187500 F150
G1 X-0.25 Y0.187500 F150
G1 X-0.25 Y-0.187500 F150
G1 X-1.0 F150
G2 Y0.5 I-0.5 J0.25 F150
G1 X1.0 F150
; G1 X0 F150
G1 X0.25 Y-0.187500 F150
G1 X0.25 Y0.187500 F150
G1 X0.25 Y0.187500 F150
