; S regular large
; Generated by generate_s-regular-large.py
; CTS: 150
; A: 0.25
; B: 0.25
; pore_size: 1.0
; uturn_length: 1.5
; uturn_radius: 1.0
; Y_repetitions: 12
; X_repetitions: 12
; layers: 10
; total_x: 12.0
; total_y: 12.0
; start gcode
; Relative positioning
G91
; start at bottom-left corner
G0 X0 Y0

; START scaffold 1/1
; Stabilization line
; layer-correction: off
G0 X12.0 F150
G0 Y0.3 F150
G0 X-12.0 F150
G0 Y0.3 F150

G0 X12.0 F150
G0 Y0.3 F150
G0 X-12.0 F150
G0 Y0.3 F150

G0 X12.0 F150
G0 Y0.3 F150
G0 X-12.0 F150
G0 Y0.3 F150

G0 X12.0 F150
G0 Y0.3 F150
G0 X-12.0 F150
G0 Y0.3 F150

G0 X12.0 F150
G0 Y0.3 F150
G0 X-12.0 F150
G0 Y0.3 F150

G0 Y0.6 F150

; layer-correction: on

; START layer 1/10
; current_layer: 0
; START Printing horizontally
G1 X0 F150
G1 X0.25 Y-0.25 F150
G1 X0.25 Y0.25 F150
G1 X0.25 Y0.25 F150
G1 X0.25 Y-0.25 F150
G1 X0.25 Y-0.25 F150
G1 X0.25 Y0.25 F150
G1 X0.25 Y0.25 F150
G1 X0.25 Y-0.25 F150
G1 X0.25 Y-0.25 F150
G1 X0.25 Y0.25 F150
G1 X0.25 Y0.25 F150
G1 X0.25 Y-0.25 F150
G1 X0.25 Y-0.25 F150
G1 X0.25 Y0.25 F150
G1 X0.25 Y0.25 F150
G1 X0.25 Y-0.25 F150
G1 X0.25 Y-0.25 F150
G1 X0.25 Y0.25 F150
G1 X0.25 Y0.25 F150
G1 X0.25 Y-0.25 F150
G1 X0.25 Y-0.25 F150
G1 X0.25 Y0.25 F150
G1 X0.25 Y0.25 F150
G1 X0.25 Y-0.25 F150
G1 X0.25 Y-0.25 F150
G1 X0.25 Y0.25 F150
G1 X0.25 Y0.25 F150
G1 X0.25 Y-0.25 F150
G1 X0.25 Y-0.25 F150
G1 X0.25 Y0.25 F150
G1 X0.25 Y0.25 F150
G1 X0.25 Y-0.25 F150
G1 X0.25 Y-0.25 F150
G1 X0.25 Y0.25 F150
G1 X0.25 Y0.25 F150
G1 X0.25 Y-0.25 F150
G1 X0.25 Y-0.25 F150
G1 X0.25 Y0.25 F150
G1 X0.25 Y0.25 F150
G1 X0.25 Y-0.25 F150
G1 X0.25 Y-0.25 F150
G1 X0.25 Y0.25 F150
G1 X0.25 Y0.25 F150
G1 X0.25 Y-0.25 F150
G1 X0.25 Y-0.25 F150
G1 X0.25 Y0.25 F150
G1 X0.25 Y0.25 F150
G1 X0.25 Y-0.25 F150
G1 X1.5 F150
G3 Y1.0 I1.0 J0.5 F150
G1 X-1.5 F150
G1 X0 F150
G1 X-0.25 Y0.25 F150
G1 X-0.25 Y-0.25 F150
G1 X-0.25 Y-0.25 F150
G1 X-0.25 Y0.25 F150
G1 X-0.25 Y0.25 F150
G1 X-0.25 Y-0.25 F150
G1 X-0.25 Y-0.25 F150
G1 X-0.25 Y0.25 F150
G1 X-0.25 Y0.25 F150
G1 X-0.25 Y-0.25 F150
G1 X-0.25 Y-0.25 F150
G1 X-0.25 Y0.25 F150
G1 X-0.25 Y0.25 F150
G1 X-0.25 Y-0.25 F150
G1 X-0.25 Y-0.25 F150
G1 X-0.25 Y0.25 F150
G1 X-0.25 Y0.25 F150
G1 X-0.25 Y-0.25 F150
G1 X-0.25 Y-0.25 F150
G1 X-0.25 Y0.25 F150
G1 X-0.25 Y0.25 F150
G1 X-0.25 Y-0.25 F150
G1 X-0.25 Y-0.25 F150
G1 X-0.25 Y0.25 F150
G1 X-0.25 Y0.25 F150
G1 X-0.25 Y-0.25 F150
G1 X-0.25 Y-0.25 F150
G1 X-0.25 Y0.25 F150
G1 X-0.25 Y0.25 F150
G1 X-0.25 Y-0.25 F150
G1 X-0.25 Y-0.25 F150
G1 X-0.25 Y0.25 F150
G1 X-0.25 Y0.25 F150
G1 X-0.25 Y-0.25 F150
G1 X-0.25 Y-0.25 F150
G1 X-0.25 Y0.25 F150
G1 X-0.25 Y0.25 F150
G1 X-0.25 Y-0.25 F150
G1 X-0.25 Y-0.25 F150
G1 X-0.25 Y0.25 F150
G1 X-0.25 Y0.25 F150
G1 X-0.25 Y-0.25 F150
G1 X-0.25 Y-0.25 F150
G1 X-0.25 Y0.25 F150
G1 X-0.25 Y0.25 F150
G1 X-0.25 Y-0.25 F150
G1 X-0.25 Y-0.25 F150
G1 X-0.25 Y0.25 F150
G1 X-1.5 F150
G2 Y1.0 I-1.0 J0.5 F150
G1 X1.5 F150
G1 X0 F150
G1 X0.25 Y-0.25 F150
G1 X0.25 Y0.25 F150
G1 X0.25 Y0.25 F150
G1 X0.25 Y-0.25 F150
G1 X0.25 Y-0.25 F150
G1 X0.25 Y0.25 F150
G1 X0.25 Y0.25 F150
G1 X0.25 Y-0.25 F150
G1 X0.25 Y-0.25 F150
G1 X0.25 Y0.25 F150
G1 X0.25 Y0.25 F150
G1 X0.25 Y-0.25 F150
G1 X0.25 Y-0.25 F150
G1 X0.25 Y0.25 F150
G1 X0.25 Y0.25 F150
G1 X0.25 Y-0.25 F150
G1 X0.25 Y-0.25 F150
G1 X0.25 Y0.25 F150
G1 X0.25 Y0.25 F150
G1 X0.25 Y-0.25 F150
G1 X0.25 Y-0.25 F150
G1 X0.25 Y0.25 F150
G1 X0.25 Y0.25 F150
G1 X0.25 Y-0.25 F150
G1 X0.25 Y-0.25 F150
G1 X0.25 Y0.25 F150
G1 X0.25 Y0.25 F150
G1 X0.25 Y-0.25 F150
G1 X0.25 Y-0.25 F150
G1 X0.25 Y0.25 F150
G1 X0.25 Y0.25 F150
G1 X0.25 Y-0.25 F150
G1 X0.25 Y-0.25 F150
G1 X0.25 Y0.25 F150
G1 X0.25 Y0.25 F150
G1 X0.25 Y-0.25 F150
G1 X0.25 Y-0.25 F150
G1 X0.25 Y0.25 F150
G1 X0.25 Y0.25 F150
G1 X0.25 Y-0.25 F150
G1 X0.25 Y-0.25 F150
G1 X0.25 Y0.25 F150
G1 X0.25 Y0.25 F150
G1 X0.25 Y-0.25 F150
G1 X0.25 Y-0.25 F150
G1 X0.25 Y0.25 F150
G1 X0.25 Y0.25 F150
G1 X0.25 Y-0.25 F150
G1 X1.5 F150
G3 Y1.0 I1.0 J0.5 F150
G1 X-1.5 F150
G1 X0 F150
G1 X-0.25 Y0.25 F150
G1 X-0.25 Y-0.25 F150
G1 X-0.25 Y-0.25 F150
G1 X-0.25 Y0.25 F150
G1 X-0.25 Y0.25 F150
G1 X-0.25 Y-0.25 F150
G1 X-0.25 Y-0.25 F150
G1 X-0.25 Y0.25 F150
G1 X-0.25 Y0.25 F150
G1 X-0.25 Y-0.25 F150
G1 X-0.25 Y-0.25 F150
G1 X-0.25 Y0.25 F150
G1 X-0.25 Y0.25 F150
G1 X-0.25 Y-0.25 F150
G1 X-0.25 Y-0.25 F150
G1 X-0.25 Y0.25 F150
G1 X-0.25 Y0.25 F150
G1 X-0.25 Y-0.25 F150
G1 X-0.25 Y-0.25 F150
G1 X-0.25 Y0.25 F150
G1 X-0.25 Y0.25 F150
G1 X-0.25 Y-0.25 F150
G1 X-0.25 Y-0.25 F150
G1 X-0.25 Y0.25 F150
G1 X-0.25 Y0.25 F150
G1 X-0.25 Y-0.25 F150
G1 X-0.25 Y-0.25 F150
G1 X-0.25 Y0.25 F150
G1 X-0.25 Y0.25 F150
G1 X-0.25 Y-0.25 F150
G1 X-0.25 Y-0.25 F150
G1 X-0.25 Y0.25 F150
G1 X-0.25 Y0.25 F150
G1 X-0.25 Y-0.25 F150
G1 X-0.25 Y-0.25 F150
G1 X-0.25 Y0.25 F150
G1 X-0.25 Y0.25 F150
G1 X-0.25 Y-0.25 F150
G1 X-0.25 Y-0.25 F150
G1 X-0.25 Y0.25 F150
G1 X-0.25 Y0.25 F150
G1 X-0.25 Y-0.25 F150
G1 X-0.25 Y-0.25 F150
G1 X-0.25 Y0.25 F150
G1 X-0.25 Y0.25 F150
G1 X-0.25 Y-0.25 F150
G1 X-0.25 Y-0.25 F150
G1 X-0.25 Y0.25 F150
G1 X-1.5 F150
G2 Y1.0 I-1.0 J0.5 F150
G1 X1.5 F150
G1 X0 F150
G1 X0.25 Y-0.25 F150
G1 X0.25 Y0.25 F150
G1 X0.25 Y0.25 F150
G1 X0.25 Y-0.25 F150
G1 X0.25 Y-0.25 F150
G1 X0.25 Y0.25 F150
G1 X0.25 Y0.25 F150
G1 X0.25 Y-0.25 F150
G1 X0.25 Y-0.25 F150
G1 X0.25 Y0.25 F150
G1 X0.25 Y0.25 F150
G1 X0.25 Y-0.25 F150
G1 X0.25 Y-0.25 F150
G1 X0.25 Y0.25 F150
G1 X0.25 Y0.25 F150
G1 X0.25 Y-0.25 F150
G1 X0.25 Y-0.25 F150
G1 X0.25 Y0.25 F150
G1 X0.25 Y0.25 F150
G1 X0.25 Y-0.25 F150
G1 X0.25 Y-0.25 F150
G1 X0.25 Y0.25 F150
G1 X0.25 Y0.25 F150
G1 X0.25 Y-0.25 F150
G1 X0.25 Y-0.25 F150
G1 X0.25 Y0.25 F150
G1 X0.25 Y0.25 F150
G1 X0.25 Y-0.25 F150
G1 X0.25 Y-0.25 F150
G1 X0.25 Y0.25 F150
G1 X0.25 Y0.25 F150
G1 X0.25 Y-0.25 F150
G1 X0.25 Y-0.25 F150
G1 X0.25 Y0.25 F150
G1 X0.25 Y0.25 F150
G1 X0.25 Y-0.25 F150
G1 X0.25 Y-0.25 F150
G1 X0.25 Y0.25 F150
G1 X0.25 Y0.25 F150
G1 X0.25 Y-0.25 F150
G1 X0.25 Y-0.25 F150
G1 X0.25 Y0.25 F150
G1 X0.25 Y0.25 F150
G1 X0.25 Y-0.25 F150
G1 X0.25 Y-0.25 F150
G1 X0.25 Y0.25 F150
G1 X0.25 Y0.25 F150
G1 X0.25 Y-0.25 F150
G1 X1.5 F150
G3 Y1.0 I1.0 J0.5 F150
G1 X-1.5 F150
G1 X0 F150
G1 X-0.25 Y0.25 F150
G1 X-0.25 Y-0.25 F150
G1 X-0.25 Y-0.25 F150
G1 X-0.25 Y0.25 F150
G1 X-0.25 Y0.25 F150
G1 X-0.25 Y-0.25 F150
G1 X-0.25 Y-0.25 F150
G1 X-0.25 Y0.25 F150
G1 X-0.25 Y0.25 F150
G1 X-0.25 Y-0.25 F150
G1 X-0.25 Y-0.25 F150
G1 X-0.25 Y0.25 F150
G1 X-0.25 Y0.25 F150
G1 X-0.25 Y-0.25 F150
G1 X-0.25 Y-0.25 F150
G1 X-0.25 Y0.25 F150
G1 X-0.25 Y0.25 F150
G1 X-0.25 Y-0.25 F150
G1 X-0.25 Y-0.25 F150
G1 X-0.25 Y0.25 F150
G1 X-0.25 Y0.25 F150
G1 X-0.25 Y-0.25 F150
G1 X-0.25 Y-0.25 F150
G1 X-0.25 Y0.25 F150
G1 X-0.25 Y0.25 F150
G1 X-0.25 Y-0.25 F150
G1 X-0.25 Y-0.25 F150
G1 X-0.25 Y0.25 F150
G1 X-0.25 Y0.25 F150
G1 X-0.25 Y-0.25 F150
G1 X-0.25 Y-0.25 F150
G1 X-0.25 Y0.25 F150
G1 X-0.25 Y0.25 F150
G1 X-0.25 Y-0.25 F150
G1 X-0.25 Y-0.25 F150
G1 X-0.25 Y0.25 F150
G1 X-0.25 Y0.25 F150
G1 X-0.25 Y-0.25 F150
G1 X-0.25 Y-0.25 F150
G1 X-0.25 Y0.25 F150
G1 X-0.25 Y0.25 F150
G1 X-0.25 Y-0.25 F150
G1 X-0.25 Y-0.25 F150
G1 X-0.25 Y0.25 F150
G1 X-0.25 Y0.25 F150
G1 X-0.25 Y-0.25 F150
G1 X-0.25 Y-0.25 F150
G1 X-0.25 Y0.25 F150
G1 X-1.5 F150
G2 Y1.0 I-1.0 J0.5 F150
G1 X1.5 F150
G1 X0 F150
G1 X0.25 Y-0.25 F150
G1 X0.25 Y0.25 F150
G1 X0.25 Y0.25 F150
G1 X0.25 Y-0.25 F150
G1 X0.25 Y-0.25 F150
G1 X0.25 Y0.25 F150
G1 X0.25 Y0.25 F150
G1 X0.25 Y-0.25 F150
G1 X0.25 Y-0.25 F150
G1 X0.25 Y0.25 F150
G1 X0.25 Y0.25 F150
G1 X0.25 Y-0.25 F150
G1 X0.25 Y-0.25 F150
G1 X0.25 Y0.25 F150
G1 X0.25 Y0.25 F150
G1 X0.25 Y-0.25 F150
G1 X0.25 Y-0.25 F150
G1 X0.25 Y0.25 F150
G1 X0.25 Y0.25 F150
G1 X0.25 Y-0.25 F150
G1 X0.25 Y-0.25 F150
G1 X0.25 Y0.25 F150
G1 X0.25 Y0.25 F150
G1 X0.25 Y-0.25 F150
G1 X0.25 Y-0.25 F150
G1 X0.25 Y0.25 F150
G1 X0.25 Y0.25 F150
G1 X0.25 Y-0.25 F150
G1 X0.25 Y-0.25 F150
G1 X0.25 Y0.25 F150
G1 X0.25 Y0.25 F150
G1 X0.25 Y-0.25 F150
G1 X0.25 Y-0.25 F150
G1 X0.25 Y0.25 F150
G1 X0.25 Y0.25 F150
G1 X0.25 Y-0.25 F150
G1 X0.25 Y-0.25 F150
G1 X0.25 Y0.25 F150
G1 X0.25 Y0.25 F150
G1 X0.25 Y-0.25 F150
G1 X0.25 Y-0.25 F150
G1 X0.25 Y0.25 F150
G1 X0.25 Y0.25 F150
G1 X0.25 Y-0.25 F150
G1 X0.25 Y-0.25 F150
G1 X0.25 Y0.25 F150
G1 X0.25 Y0.25 F150
G1 X0.25 Y-0.25 F150
G1 X1.5 F150
G3 Y1.0 I1.0 J0.5 F150
G1 X-1.5 F150
G1 X0 F150
G1 X-0.25 Y0.25 F150
G1 X-0.25 Y-0.25 F150
G1 X-0.25 Y-0.25 F150
G1 X-0.25 Y0.25 F150
G1 X-0.25 Y0.25 F150
G1 X-0.25 Y-0.25 F150
G1 X-0.25 Y-0.25 F150
G1 X-0.25 Y0.25 F150
G1 X-0.25 Y0.25 F150
G1 X-0.25 Y-0.25 F150
G1 X-0.25 Y-0.25 F150
G1 X-0.25 Y0.25 F150
G1 X-0.25 Y0.25 F150
G1 X-0.25 Y-0.25 F150
G1 X-0.25 Y-0.25 F150
G1 X-0.25 Y0.25 F150
G1 X-0.25 Y0.25 F150
G1 X-0.25 Y-0.25 F150
G1 X-0.25 Y-0.25 F150
G1 X-0.25 Y0.25 F150
G1 X-0.25 Y0.25 F150
G1 X-0.25 Y-0.25 F150
G1 X-0.25 Y-0.25 F150
G1 X-0.25 Y0.25 F150
G1 X-0.25 Y0.25 F150
G1 X-0.25 Y-0.25 F150
G1 X-0.25 Y-0.25 F150
G1 X-0.25 Y0.25 F150
G1 X-0.25 Y0.25 F150
G1 X-0.25 Y-0.25 F150
G1 X-0.25 Y-0.25 F150
G1 X-0.25 Y0.25 F150
G1 X-0.25 Y0.25 F150
G1 X-0.25 Y-0.25 F150
G1 X-0.25 Y-0.25 F150
G1 X-0.25 Y0.25 F150
G1 X-0.25 Y0.25 F150
G1 X-0.25 Y-0.25 F150
G1 X-0.25 Y-0.25 F150
G1 X-0.25 Y0.25 F150
G1 X-0.25 Y0.25 F150
G1 X-0.25 Y-0.25 F150
G1 X-0.25 Y-0.25 F150
G1 X-0.25 Y0.25 F150
G1 X-0.25 Y0.25 F150
G1 X-0.25 Y-0.25 F150
G1 X-0.25 Y-0.25 F150
G1 X-0.25 Y0.25 F150
G1 X-1.5 F150
G2 Y1.0 I-1.0 J0.5 F150
G1 X1.5 F150
G1 X0 F150
G1 X0.25 Y-0.25 F150
G1 X0.25 Y0.25 F150
G1 X0.25 Y0.25 F150
G1 X0.25 Y-0.25 F150
G1 X0.25 Y-0.25 F150
G1 X0.25 Y0.25 F150
G1 X0.25 Y0.25 F150
G1 X0.25 Y-0.25 F150
G1 X0.25 Y-0.25 F150
G1 X0.25 Y0.25 F150
G1 X0.25 Y0.25 F150
G1 X0.25 Y-0.25 F150
G1 X0.25 Y-0.25 F150
G1 X0.25 Y0.25 F150
G1 X0.25 Y0.25 F150
G1 X0.25 Y-0.25 F150
G1 X0.25 Y-0.25 F150
G1 X0.25 Y0.25 F150
G1 X0.25 Y0.25 F150
G1 X0.25 Y-0.25 F150
G1 X0.25 Y-0.25 F150
G1 X0.25 Y0.25 F150
G1 X0.25 Y0.25 F150
G1 X0.25 Y-0.25 F150
G1 X0.25 Y-0.25 F150
G1 X0.25 Y0.25 F150
G1 X0.25 Y0.25 F150
G1 X0.25 Y-0.25 F150
G1 X0.25 Y-0.25 F150
G1 X0.25 Y0.25 F150
G1 X0.25 Y0.25 F150
G1 X0.25 Y-0.25 F150
G1 X0.25 Y-0.25 F150
G1 X0.25 Y0.25 F150
G1 X0.25 Y0.25 F150
G1 X0.25 Y-0.25 F150
G1 X0.25 Y-0.25 F150
G1 X0.25 Y0.25 F150
G1 X0.25 Y0.25 F150
G1 X0.25 Y-0.25 F150
G1 X0.25 Y-0.25 F150
G1 X0.25 Y0.25 F150
G1 X0.25 Y0.25 F150
G1 X0.25 Y-0.25 F150
G1 X0.25 Y-0.25 F150
G1 X0.25 Y0.25 F150
G1 X0.25 Y0.25 F150
G1 X0.25 Y-0.25 F150
G1 X1.5 F150
G3 Y1.0 I1.0 J0.5 F150
G1 X-1.5 F150
G1 X0 F150
G1 X-0.25 Y0.25 F150
G1 X-0.25 Y-0.25 F150
G1 X-0.25 Y-0.25 F150
G1 X-0.25 Y0.25 F150
G1 X-0.25 Y0.25 F150
G1 X-0.25 Y-0.25 F150
G1 X-0.25 Y-0.25 F150
G1 X-0.25 Y0.25 F150
G1 X-0.25 Y0.25 F150
G1 X-0.25 Y-0.25 F150
G1 X-0.25 Y-0.25 F150
G1 X-0.25 Y0.25 F150
G1 X-0.25 Y0.25 F150
G1 X-0.25 Y-0.25 F150
G1 X-0.25 Y-0.25 F150
G1 X-0.25 Y0.25 F150
G1 X-0.25 Y0.25 F150
G1 X-0.25 Y-0.25 F150
G1 X-0.25 Y-0.25 F150
G1 X-0.25 Y0.25 F150
G1 X-0.25 Y0.25 F150
G1 X-0.25 Y-0.25 F150
G1 X-0.25 Y-0.25 F150
G1 X-0.25 Y0.25 F150
G1 X-0.25 Y0.25 F150
G1 X-0.25 Y-0.25 F150
G1 X-0.25 Y-0.25 F150
G1 X-0.25 Y0.25 F150
G1 X-0.25 Y0.25 F150
G1 X-0.25 Y-0.25 F150
G1 X-0.25 Y-0.25 F150
G1 X-0.25 Y0.25 F150
G1 X-0.25 Y0.25 F150
G1 X-0.25 Y-0.25 F150
G1 X-0.25 Y-0.25 F150
G1 X-0.25 Y0.25 F150
G1 X-0.25 Y0.25 F150
G1 X-0.25 Y-0.25 F150
G1 X-0.25 Y-0.25 F150
G1 X-0.25 Y0.25 F150
G1 X-0.25 Y0.25 F150
G1 X-0.25 Y-0.25 F150
G1 X-0.25 Y-0.25 F150
G1 X-0.25 Y0.25 F150
G1 X-0.25 Y0.25 F150
G1 X-0.25 Y-0.25 F150
G1 X-0.25 Y-0.25 F150
G1 X-0.25 Y0.25 F150
G1 X-1.5 F150
G2 Y1.0 I-1.0 J0.5 F150
G1 X1.5 F150
G1 X0 F150
G1 X0.25 Y-0.25 F150
G1 X0.25 Y0.25 F150
G1 X0.25 Y0.25 F150
G1 X0.25 Y-0.25 F150
G1 X0.25 Y-0.25 F150
G1 X0.25 Y0.25 F150
G1 X0.25 Y0.25 F150
G1 X0.25 Y-0.25 F150
G1 X0.25 Y-0.25 F150
G1 X0.25 Y0.25 F150
G1 X0.25 Y0.25 F150
G1 X0.25 Y-0.25 F150
G1 X0.25 Y-0.25 F150
G1 X0.25 Y0.25 F150
G1 X0.25 Y0.25 F150
G1 X0.25 Y-0.25 F150
G1 X0.25 Y-0.25 F150
G1 X0.25 Y0.25 F150
G1 X0.25 Y0.25 F150
G1 X0.25 Y-0.25 F150
G1 X0.25 Y-0.25 F150
G1 X0.25 Y0.25 F150
G1 X0.25 Y0.25 F150
G1 X0.25 Y-0.25 F150
G1 X0.25 Y-0.25 F150
G1 X0.25 Y0.25 F150
G1 X0.25 Y0.25 F150
G1 X0.25 Y-0.25 F150
G1 X0.25 Y-0.25 F150
G1 X0.25 Y0.25 F150
G1 X0.25 Y0.25 F150
G1 X0.25 Y-0.25 F150
G1 X0.25 Y-0.25 F150
G1 X0.25 Y0.25 F150
G1 X0.25 Y0.25 F150
G1 X0.25 Y-0.25 F150
G1 X0.25 Y-0.25 F150
G1 X0.25 Y0.25 F150
G1 X0.25 Y0.25 F150
G1 X0.25 Y-0.25 F150
G1 X0.25 Y-0.25 F150
G1 X0.25 Y0.25 F150
G1 X0.25 Y0.25 F150
G1 X0.25 Y-0.25 F150
G1 X0.25 Y-0.25 F150
G1 X0.25 Y0.25 F150
G1 X0.25 Y0.25 F150
G1 X0.25 Y-0.25 F150
G1 X1.5 F150
G3 Y1.0 I1.0 J0.5 F150
G1 X-1.5 F150
G1 X0 F150
G1 X-0.25 Y0.25 F150
G1 X-0.25 Y-0.25 F150
G1 X-0.25 Y-0.25 F150
G1 X-0.25 Y0.25 F150
G1 X-0.25 Y0.25 F150
G1 X-0.25 Y-0.25 F150
G1 X-0.25 Y-0.25 F150
G1 X-0.25 Y0.25 F150
G1 X-0.25 Y0.25 F150
G1 X-0.25 Y-0.25 F150
G1 X-0.25 Y-0.25 F150
G1 X-0.25 Y0.25 F150
G1 X-0.25 Y0.25 F150
G1 X-0.25 Y-0.25 F150
G1 X-0.25 Y-0.25 F150
G1 X-0.25 Y0.25 F150
G1 X-0.25 Y0.25 F150
G1 X-0.25 Y-0.25 F150
G1 X-0.25 Y-0.25 F150
G1 X-0.25 Y0.25 F150
G1 X-0.25 Y0.25 F150
G1 X-0.25 Y-0.25 F150
G1 X-0.25 Y-0.25 F150
G1 X-0.25 Y0.25 F150
G1 X-0.25 Y0.25 F150
G1 X-0.25 Y-0.25 F150
G1 X-0.25 Y-0.25 F150
G1 X-0.25 Y0.25 F150
G1 X-0.25 Y0.25 F150
G1 X-0.25 Y-0.25 F150
G1 X-0.25 Y-0.25 F150
G1 X-0.25 Y0.25 F150
G1 X-0.25 Y0.25 F150
G1 X-0.25 Y-0.25 F150
G1 X-0.25 Y-0.25 F150
G1 X-0.25 Y0.25 F150
G1 X-0.25 Y0.25 F150
G1 X-0.25 Y-0.25 F150
G1 X-0.25 Y-0.25 F150
G1 X-0.25 Y0.25 F150
G1 X-0.25 Y0.25 F150
G1 X-0.25 Y-0.25 F150
G1 X-0.25 Y-0.25 F150
G1 X-0.25 Y0.25 F150
G1 X-0.25 Y0.25 F150
G1 X-0.25 Y-0.25 F150
G1 X-0.25 Y-0.25 F150
G1 X-0.25 Y0.25 F150
G1 X-1.5 F150
G2 Y1.0 I-1.0 J0.5 F150
G1 X1.5 F150
G1 X0 F150
G1 X0.25 Y-0.25 F150
G1 X0.25 Y0.25 F150
G1 X0.25 Y0.25 F150
G1 X0.25 Y-0.25 F150
G1 X0.25 Y-0.25 F150
G1 X0.25 Y0.25 F150
G1 X0.25 Y0.25 F150
G1 X0.25 Y-0.25 F150
G1 X0.25 Y-0.25 F150
G1 X0.25 Y0.25 F150
G1 X0.25 Y0.25 F150
G1 X0.25 Y-0.25 F150
G1 X0.25 Y-0.25 F150
G1 X0.25 Y0.25 F150
G1 X0.25 Y0.25 F150
G1 X0.25 Y-0.25 F150
G1 X0.25 Y-0.25 F150
G1 X0.25 Y0.25 F150
G1 X0.25 Y0.25 F150
G1 X0.25 Y-0.25 F150
G1 X0.25 Y-0.25 F150
G1 X0.25 Y0.25 F150
G1 X0.25 Y0.25 F150
G1 X0.25 Y-0.25 F150
G1 X0.25 Y-0.25 F150
G1 X0.25 Y0.25 F150
G1 X0.25 Y0.25 F150
G1 X0.25 Y-0.25 F150
G1 X0.25 Y-0.25 F150
G1 X0.25 Y0.25 F150
G1 X0.25 Y0.25 F150
G1 X0.25 Y-0.25 F150
G1 X0.25 Y-0.25 F150
G1 X0.25 Y0.25 F150
G1 X0.25 Y0.25 F150
G1 X0.25 Y-0.25 F150
G1 X0.25 Y-0.25 F150
G1 X0.25 Y0.25 F150
G1 X0.25 Y0.25 F150
G1 X0.25 Y-0.25 F150
G1 X0.25 Y-0.25 F150
G1 X0.25 Y0.25 F150
G1 X0.25 Y0.25 F150
G1 X0.25 Y-0.25 F150
G1 X0.25 Y-0.25 F150
G1 X0.25 Y0.25 F150
G1 X0.25 Y0.25 F150
G1 X0.25 Y-0.25 F150
; END Printing horizontally
G1 X1.5 F150
G1 Y1.5 F150
G1 X-1.5 F150
G1 Y-1.5 F150
; START Printing vertically
G1 Y0 F150
G1 X-0.25 Y-0.25 F150
G1 X0.25 Y-0.25 F150
G1 X0.25 Y-0.25 F150
G1 X-0.25 Y-0.25 F150
G1 X-0.25 Y-0.25 F150
G1 X0.25 Y-0.25 F150
G1 X0.25 Y-0.25 F150
G1 X-0.25 Y-0.25 F150
G1 X-0.25 Y-0.25 F150
G1 X0.25 Y-0.25 F150
G1 X0.25 Y-0.25 F150
G1 X-0.25 Y-0.25 F150
G1 X-0.25 Y-0.25 F150
G1 X0.25 Y-0.25 F150
G1 X0.25 Y-0.25 F150
G1 X-0.25 Y-0.25 F150
G1 X-0.25 Y-0.25 F150
G1 X0.25 Y-0.25 F150
G1 X0.25 Y-0.25 F150
G1 X-0.25 Y-0.25 F150
G1 X-0.25 Y-0.25 F150
G1 X0.25 Y-0.25 F150
G1 X0.25 Y-0.25 F150
G1 X-0.25 Y-0.25 F150
G1 X-0.25 Y-0.25 F150
G1 X0.25 Y-0.25 F150
G1 X0.25 Y-0.25 F150
G1 X-0.25 Y-0.25 F150
G1 X-0.25 Y-0.25 F150
G1 X0.25 Y-0.25 F150
G1 X0.25 Y-0.25 F150
G1 X-0.25 Y-0.25 F150
G1 X-0.25 Y-0.25 F150
G1 X0.25 Y-0.25 F150
G1 X0.25 Y-0.25 F150
G1 X-0.25 Y-0.25 F150
G1 X-0.25 Y-0.25 F150
G1 X0.25 Y-0.25 F150
G1 X0.25 Y-0.25 F150
G1 X-0.25 Y-0.25 F150
G1 X-0.25 Y-0.25 F150
G1 X0.25 Y-0.25 F150
G1 X0.25 Y-0.25 F150
G1 X-0.25 Y-0.25 F150
G1 X-0.25 Y-0.25 F150
G1 X0.25 Y-0.25 F150
G1 X0.25 Y-0.25 F150
G1 X-0.25 Y-0.25 F150
G1 Y-1.5 F150
G2 X-1.0 I-0.5 J-1.0 F150
G1 Y1.5 F150
G1 Y0 F150
G1 X0.25 Y0.25 F150
G1 X-0.25 Y0.25 F150
G1 X-0.25 Y0.25 F150
G1 X0.25 Y0.25 F150
G1 X0.25 Y0.25 F150
G1 X-0.25 Y0.25 F150
G1 X-0.25 Y0.25 F150
G1 X0.25 Y0.25 F150
G1 X0.25 Y0.25 F150
