; S Triangular
; Generated by generate_s-triangular.py
; CTS: 100
; A: 0.25
; B: 0.1875
; pore_size: 1.0
; zero_degrees_length: 2.0
; sixty_degrees_length: 3.0
; Y_repetitions: 4
; X_repetitions: 4
; layers: 10
; total_x: 4.0
; total_y: 4.0
; start gcode
; Relative positioning
G91
; start at bottom-left corner
G0 X0 Y0

; START scaffold 1/1
; Stabilization line
; layer-correction: off
G0 X4.0 F100
G0 Y0.3 F100
G0 X-4.0 F100
G0 Y0.3 F100

G0 X4.0 F100
G0 Y0.3 F100
G0 X-4.0 F100
G0 Y0.3 F100

G0 X4.0 F100
G0 Y0.3 F100
G0 X-4.0 F100
G0 Y0.3 F100

G0 X4.0 F100
G0 Y0.3 F100
G0 X-4.0 F100
G0 Y0.3 F100

G0 X4.0 F100
G0 Y0.3 F100
G0 X-4.0 F100
G0 Y0.3 F100

G0 Y0.6 F100

; layer-correction: on

; START layer 1/10
; current_layer: 0
; START Printing horizontally
G1 X0 F100
G1 X0.25 Y-0.1875 F100
G1 X0.25 Y0.1875 F100
G1 X0.25 Y0.1875 F100
G1 X0.25 Y-0.1875 F100
G1 X0.25 Y-0.1875 F100
G1 X0.25 Y0.1875 F100
G1 X0.25 Y0.1875 F100
G1 X0.25 Y-0.1875 F100
G1 X0.25 Y-0.1875 F100
G1 X0.25 Y0.1875 F100
G1 X0.25 Y0.1875 F100
G1 X0.25 Y-0.1875 F100
G1 X0.25 Y-0.1875 F100
G1 X0.25 Y0.1875 F100
G1 X0.25 Y0.1875 F100
G1 X0.25 Y-0.1875 F100
G0 X2.0 F100
G0 Y0.8660254037844386 F100
G0 X-1.5 F100
G1 X0 F100
G1 X-0.25 Y0.1875 F100
G1 X-0.25 Y-0.1875 F100
G1 X-0.25 Y-0.1875 F100
G1 X-0.25 Y0.1875 F100
G1 X-0.25 Y0.1875 F100
G1 X-0.25 Y-0.1875 F100
G1 X-0.25 Y-0.1875 F100
G1 X-0.25 Y0.1875 F100
G1 X-0.25 Y0.1875 F100
G1 X-0.25 Y-0.1875 F100
G1 X-0.25 Y-0.1875 F100
G1 X-0.25 Y0.1875 F100
G1 X-0.25 Y0.1875 F100
G1 X-0.25 Y-0.1875 F100
G1 X-0.25 Y-0.1875 F100
G1 X-0.25 Y0.1875 F100
G0 X-2.5 F100
G0 Y0.8660254037844386 F100
G0 X2.0 F100
G1 X0 F100
G1 X0.25 Y-0.1875 F100
G1 X0.25 Y0.1875 F100
G1 X0.25 Y0.1875 F100
G1 X0.25 Y-0.1875 F100
G1 X0.25 Y-0.1875 F100
G1 X0.25 Y0.1875 F100
G1 X0.25 Y0.1875 F100
G1 X0.25 Y-0.1875 F100
G1 X0.25 Y-0.1875 F100
G1 X0.25 Y0.1875 F100
G1 X0.25 Y0.1875 F100
G1 X0.25 Y-0.1875 F100
G1 X0.25 Y-0.1875 F100
G1 X0.25 Y0.1875 F100
G1 X0.25 Y0.1875 F100
G1 X0.25 Y-0.1875 F100
G0 X2.0 F100
G0 Y0.8660254037844386 F100
G0 X-1.5 F100
G1 X0 F100
G1 X-0.25 Y0.1875 F100
G1 X-0.25 Y-0.1875 F100
G1 X-0.25 Y-0.1875 F100
G1 X-0.25 Y0.1875 F100
G1 X-0.25 Y0.1875 F100
G1 X-0.25 Y-0.1875 F100
G1 X-0.25 Y-0.1875 F100
G1 X-0.25 Y0.1875 F100
G1 X-0.25 Y0.1875 F100
G1 X-0.25 Y-0.1875 F100
G1 X-0.25 Y-0.1875 F100
G1 X-0.25 Y0.1875 F100
G1 X-0.25 Y0.1875 F100
G1 X-0.25 Y-0.1875 F100
G1 X-0.25 Y-0.1875 F100
G1 X-0.25 Y0.1875 F100
G0 X-2.5 F100
G0 Y0.8660254037844386 F100
G0 X2.0 F100
G1 X0 F100
G1 X0.25 Y-0.1875 F100
G1 X0.25 Y0.1875 F100
G1 X0.25 Y0.1875 F100
G1 X0.25 Y-0.1875 F100
G1 X0.25 Y-0.1875 F100
G1 X0.25 Y0.1875 F100
G1 X0.25 Y0.1875 F100
G1 X0.25 Y-0.1875 F100
G1 X0.25 Y-0.1875 F100
G1 X0.25 Y0.1875 F100
G1 X0.25 Y0.1875 F100
G1 X0.25 Y-0.1875 F100
G1 X0.25 Y-0.1875 F100
G1 X0.25 Y0.1875 F100
G1 X0.25 Y0.1875 F100
G1 X0.25 Y-0.1875 F100
G1 X0 F100
; END Printing horizontally
; START Printing -60deg
; Printing -60deg lines: 1/6
; inner step: 1
G1 X0.000 Y0.000 F100.00
G1 X-0.037 Y-0.310 F100.00
G1 X0.287 Y-0.123 F100.00
G1 X0.287 Y-0.123 F100.00
G1 X-0.037 Y-0.310 F100.00
G0 X1.500 Y-2.598 F100.00
G0 X-0.751 Y-0.433 F100.00
; extra line right
G0 X-0.750 Y1.299 F100.00
; Printing -60deg lines: 2/6
; inner step: 3
G1 X0.000 Y0.000 F100.00
G1 X0.037 Y0.310 F100.00
G1 X-0.287 Y0.123 F100.00
G1 X-0.287 Y0.123 F100.00
G1 X0.037 Y0.310 F100.00
G1 X0.037 Y0.310 F100.00
G1 X-0.287 Y0.123 F100.00
G1 X-0.287 Y0.123 F100.00
G1 X0.037 Y0.310 F100.00
G1 X0.037 Y0.310 F100.00
G1 X-0.287 Y0.123 F100.00
G1 X-0.287 Y0.123 F100.00
G1 X0.037 Y0.310 F100.00
G0 X-1.500 Y2.598 F100.00
G0 X-0.751 Y-0.433 F100.00
; extra line up
G0 X1.250 Y-2.165 F100.00
; Printing -60deg lines: 3/6
; inner step: 4
G1 X0.000 Y0.000 F100.00
G1 X-0.037 Y-0.310 F100.00
G1 X0.287 Y-0.123 F100.00
G1 X0.287 Y-0.123 F100.00
G1 X-0.037 Y-0.310 F100.00
G1 X-0.037 Y-0.310 F100.00
G1 X0.287 Y-0.123 F100.00
G1 X0.287 Y-0.123 F100.00
G1 X-0.037 Y-0.310 F100.00
G1 X-0.037 Y-0.310 F100.00
G1 X0.287 Y-0.123 F100.00
G1 X0.287 Y-0.123 F100.00
G1 X-0.037 Y-0.310 F100.00
G1 X-0.037 Y-0.310 F100.00
G1 X0.287 Y-0.123 F100.00
G1 X0.287 Y-0.123 F100.00
G1 X-0.037 Y-0.310 F100.00
G0 X1.500 Y-2.598 F100.00
G0 X-0.751 Y-0.433 F100.00
; extra line bottom
G0 X-1.750 Y3.031 F100.00
; Printing -60deg lines: 4/6
; inner step: 4
G1 X0.000 Y0.000 F100.00
G1 X0.037 Y0.310 F100.00
G1 X-0.287 Y0.123 F100.00
G1 X-0.287 Y0.123 F100.00
G1 X0.037 Y0.310 F100.00
G1 X0.037 Y0.310 F100.00
G1 X-0.287 Y0.123 F100.00
G1 X-0.287 Y0.123 F100.00
G1 X0.037 Y0.310 F100.00
G1 X0.037 Y0.310 F100.00
G1 X-0.287 Y0.123 F100.00
G1 X-0.287 Y0.123 F100.00
G1 X0.037 Y0.310 F100.00
G1 X0.037 Y0.310 F100.00
G1 X-0.287 Y0.123 F100.00
G1 X-0.287 Y0.123 F100.00
G1 X0.037 Y0.310 F100.00
G0 X-1.500 Y2.598 F100.00
G0 X-0.751 Y-0.433 F100.00
; extra line up
G0 X1.250 Y-2.165 F100.00
; Printing -60deg lines: 5/6
; inner step: 4
G1 X0.000 Y0.000 F100.00
G1 X-0.037 Y-0.310 F100.00
G1 X0.287 Y-0.123 F100.00
G1 X0.287 Y-0.123 F100.00
G1 X-0.037 Y-0.310 F100.00
G1 X-0.037 Y-0.310 F100.00
G1 X0.287 Y-0.123 F100.00
G1 X0.287 Y-0.123 F100.00
G1 X-0.037 Y-0.310 F100.00
G1 X-0.037 Y-0.310 F100.00
G1 X0.287 Y-0.123 F100.00
G1 X0.287 Y-0.123 F100.00
G1 X-0.037 Y-0.310 F100.00
G1 X-0.037 Y-0.310 F100.00
G1 X0.287 Y-0.123 F100.00
G1 X0.287 Y-0.123 F100.00
G1 X-0.037 Y-0.310 F100.00
G0 X1.500 Y-2.598 F100.00
G0 X-0.751 Y-0.433 F100.00
; extra line bottom
G0 X-1.750 Y3.031 F100.00
; Printing -60deg lines: 6/6
; inner step: 2
G1 X0.000 Y0.000 F100.00
G1 X0.037 Y0.310 F100.00
G1 X-0.287 Y0.123 F100.00
G1 X-0.287 Y0.123 F100.00
G1 X0.037 Y0.310 F100.00
G1 X0.037 Y0.310 F100.00
G1 X-0.287 Y0.123 F100.00
G1 X-0.287 Y0.123 F100.00
G1 X0.037 Y0.310 F100.00
G0 X-1.500 Y2.598 F100.00
G0 X-0.751 Y-0.433 F100.00
; extra line left
G0 X2.250 Y-3.897 F100.00
; END Printing -60deg

; move to top-left corner
G0 X-2.0 F100
G0 Y4.330127018922193 F100
G0 X3.5 F100
G0 X-0.5000000000000001 Y-0.8660254037844386 F100
; START Printing +60deg
; Printing +60deg lines: 1/6
; inner step: 2
G1 X0.000 Y0.000 F100.00
G1 X-0.287 Y-0.123 F100.00
G1 X0.037 Y-0.310 F100.00
G1 X0.037 Y-0.310 F100.00
G1 X-0.287 Y-0.123 F100.00
G1 X-0.287 Y-0.123 F100.00
G1 X0.037 Y-0.310 F100.00
G1 X0.037 Y-0.310 F100.00
G1 X-0.287 Y-0.123 F100.00
G0 X-1.500 Y-2.598 F100.00
G0 X0.751 Y-0.433 F100.00
; extra line left
G0 X0.750 Y1.299 F100.00
; Printing +60deg lines: 2/6
; inner step: 4
G1 X0.000 Y0.000 F100.00
G1 X0.287 Y0.123 F100.00
G1 X-0.037 Y0.310 F100.00
G1 X-0.037 Y0.310 F100.00
G1 X0.287 Y0.123 F100.00
G1 X0.287 Y0.123 F100.00
G1 X-0.037 Y0.310 F100.00
G1 X-0.037 Y0.310 F100.00
G1 X0.287 Y0.123 F100.00
G1 X0.287 Y0.123 F100.00
G1 X-0.037 Y0.310 F100.00
G1 X-0.037 Y0.310 F100.00
G1 X0.287 Y0.123 F100.00
G1 X0.287 Y0.123 F100.00
G1 X-0.037 Y0.310 F100.00
G1 X-0.037 Y0.310 F100.00
G1 X0.287 Y0.123 F100.00
G0 X1.500 Y2.598 F100.00
G0 X0.751 Y-0.433 F100.00
; extra line up
G0 X-1.250 Y-2.165 F100.00
; Printing +60deg lines: 3/6
; inner step: 4
G1 X0.000 Y0.000 F100.00
G1 X-0.287 Y-0.123 F100.00
G1 X0.037 Y-0.310 F100.00
G1 X0.037 Y-0.310 F100.00
G1 X-0.287 Y-0.123 F100.00
G1 X-0.287 Y-0.123 F100.00
G1 X0.037 Y-0.310 F100.00
G1 X0.037 Y-0.310 F100.00
G1 X-0.287 Y-0.123 F100.00
G1 X-0.287 Y-0.123 F100.00
G1 X0.037 Y-0.310 F100.00
G1 X0.037 Y-0.310 F100.00
G1 X-0.287 Y-0.123 F100.00
G1 X-0.287 Y-0.123 F100.00
G1 X0.037 Y-0.310 F100.00
G1 X0.037 Y-0.310 F100.00
G1 X-0.287 Y-0.123 F100.00
G0 X-1.500 Y-2.598 F100.00
G0 X0.751 Y-0.433 F100.00
; extra line bottom
G0 X1.750 Y3.031 F100.00
; Printing +60deg lines: 4/6
; inner step: 4
G1 X0.000 Y0.000 F100.00
G1 X0.287 Y0.123 F100.00
G1 X-0.037 Y0.310 F100.00
G1 X-0.037 Y0.310 F100.00
G1 X0.287 Y0.123 F100.00
G1 X0.287 Y0.123 F100.00
G1 X-0.037 Y0.310 F100.00
G1 X-0.037 Y0.310 F100.00
G1 X0.287 Y0.123 F100.00
G1 X0.287 Y0.123 F100.00
G1 X-0.037 Y0.310 F100.00
G1 X-0.037 Y0.310 F100.00
G1 X0.287 Y0.123 F100.00
G1 X0.287 Y0.123 F100.00
G1 X-0.037 Y0.310 F100.00
G1 X-0.037 Y0.310 F100.00
G1 X0.287 Y0.123 F100.00
G0 X1.500 Y2.598 F100.00
G0 X0.751 Y-0.433 F100.00
; extra line up_corner
G0 X-1.750 Y-3.031 F100.00
; Printing +60deg lines: 5/6
; inner step: 3
G1 X0.000 Y0.000 F100.00
G1 X-0.287 Y-0.123 F100.00
G1 X0.037 Y-0.310 F100.00
G1 X0.037 Y-0.310 F100.00
G1 X-0.287 Y-0.123 F100.00
G1 X-0.287 Y-0.123 F100.00
G1 X0.037 Y-0.310 F100.00
G1 X0.037 Y-0.310 F100.00
G1 X-0.287 Y-0.123 F100.00
G1 X-0.287 Y-0.123 F100.00
G1 X0.037 Y-0.310 F100.00
G1 X0.037 Y-0.310 F100.00
G1 X-0.287 Y-0.123 F100.00
G0 X-1.500 Y-2.598 F100.00
G0 X0.751 Y-0.433 F100.00
; extra line bottom
G0 X1.750 Y3.031 F100.00
; Printing +60deg lines: 6/6
; inner step: 1
G1 X0.000 Y0.000 F100.00
G1 X0.287 Y0.123 F100.00
G1 X-0.037 Y0.310 F100.00
G1 X-0.037 Y0.310 F100.00
G1 X0.287 Y0.123 F100.00
G0 X0.000 Y0.000 F100.00
; move to bottom-left corner
G0 X2.0 F100
G0 Y-2.0 F100
G0 X-8.5 F100
G0 Y1.1339745962155614 F100
G0 X2.0 F100

; START layer 2/10
; current_layer: 1
; START Printing horizontally
G1 X0 F100
G1 X0.25 Y-0.1875 F100
G1 X0.25 Y0.1875 F100
G1 X0.25 Y0.1875 F100
G1 X0.25 Y-0.1875 F100
G1 X0.25 Y-0.1875 F100
G1 X0.25 Y0.1875 F100
G1 X0.25 Y0.1875 F100
G1 X0.25 Y-0.1875 F100
G1 X0.25 Y-0.1875 F100
G1 X0.25 Y0.1875 F100
G1 X0.25 Y0.1875 F100
G1 X0.25 Y-0.1875 F100
G1 X0.25 Y-0.1875 F100
G1 X0.25 Y0.1875 F100
G1 X0.25 Y0.1875 F100
G1 X0.25 Y-0.1875 F100
G0 X2.0 F100
G0 Y0.8660254037844386 F100
G0 X-1.5 F100
G1 X0 F100
G1 X-0.25 Y0.1875 F100
G1 X-0.25 Y-0.1875 F100
G1 X-0.25 Y-0.1875 F100
G1 X-0.25 Y0.1875 F100
G1 X-0.25 Y0.1875 F100
G1 X-0.25 Y-0.1875 F100
G1 X-0.25 Y-0.1875 F100
G1 X-0.25 Y0.1875 F100
G1 X-0.25 Y0.1875 F100
G1 X-0.25 Y-0.1875 F100
G1 X-0.25 Y-0.1875 F100
G1 X-0.25 Y0.1875 F100
G1 X-0.25 Y0.1875 F100
G1 X-0.25 Y-0.1875 F100
G1 X-0.25 Y-0.1875 F100
G1 X-0.25 Y0.1875 F100
G0 X-2.5 F100
G0 Y0.8660254037844386 F100
G0 X2.0 F100
G1 X0 F100
G1 X0.25 Y-0.1875 F100
G1 X0.25 Y0.1875 F100
G1 X0.25 Y0.1875 F100
G1 X0.25 Y-0.1875 F100
G1 X0.25 Y-0.1875 F100
G1 X0.25 Y0.1875 F100
G1 X0.25 Y0.1875 F100
G1 X0.25 Y-0.1875 F100
G1 X0.25 Y-0.1875 F100
G1 X0.25 Y0.1875 F100
G1 X0.25 Y0.1875 F100
G1 X0.25 Y-0.1875 F100
G1 X0.25 Y-0.1875 F100
G1 X0.25 Y0.1875 F100
G1 X0.25 Y0.1875 F100
G1 X0.25 Y-0.1875 F100
G0 X2.0 F100
G0 Y0.8660254037844386 F100
G0 X-1.5 F100
G1 X0 F100
G1 X-0.25 Y0.1875 F100
G1 X-0.25 Y-0.1875 F100
G1 X-0.25 Y-0.1875 F100
G1 X-0.25 Y0.1875 F100
G1 X-0.25 Y0.1875 F100
G1 X-0.25 Y-0.1875 F100
G1 X-0.25 Y-0.1875 F100
G1 X-0.25 Y0.1875 F100
G1 X-0.25 Y0.1875 F100
G1 X-0.25 Y-0.1875 F100
G1 X-0.25 Y-0.1875 F100
G1 X-0.25 Y0.1875 F100
G1 X-0.25 Y0.1875 F100
G1 X-0.25 Y-0.1875 F100
G1 X-0.25 Y-0.1875 F100
G1 X-0.25 Y0.1875 F100
G0 X-2.5 F100
G0 Y0.8660254037844386 F100
G0 X2.0 F100
G1 X0 F100
G1 X0.25 Y-0.1875 F100
G1 X0.25 Y0.1875 F100
G1 X0.25 Y0.1875 F100
G1 X0.25 Y-0.1875 F100
G1 X0.25 Y-0.1875 F100
G1 X0.25 Y0.1875 F100
G1 X0.25 Y0.1875 F100
G1 X0.25 Y-0.1875 F100
G1 X0.25 Y-0.1875 F100
G1 X0.25 Y0.1875 F100
G1 X0.25 Y0.1875 F100
G1 X0.25 Y-0.1875 F100
G1 X0.25 Y-0.1875 F100
G1 X0.25 Y0.1875 F100
G1 X0.25 Y0.1875 F100
G1 X0.25 Y-0.1875 F100
G1 X0 F100
; END Printing horizontally
; START Printing -60deg
; Printing -60deg lines: 1/6
; inner step: 1
G1 X0.000 Y0.000 F100.00
G1 X-0.037 Y-0.310 F100.00
G1 X0.287 Y-0.123 F100.00
G1 X0.287 Y-0.123 F100.00
G1 X-0.037 Y-0.310 F100.00
G0 X1.500 Y-2.598 F100.00
G0 X-0.751 Y-0.433 F100.00
; extra line right
G0 X-0.750 Y1.299 F100.00
; Printing -60deg lines: 2/6
; inner step: 3
G1 X0.000 Y0.000 F100.00
G1 X0.037 Y0.310 F100.00
G1 X-0.287 Y0.123 F100.00
G1 X-0.287 Y0.123 F100.00
G1 X0.037 Y0.310 F100.00
G1 X0.037 Y0.310 F100.00
G1 X-0.287 Y0.123 F100.00
G1 X-0.287 Y0.123 F100.00
G1 X0.037 Y0.310 F100.00
G1 X0.037 Y0.310 F100.00
G1 X-0.287 Y0.123 F100.00
G1 X-0.287 Y0.123 F100.00
G1 X0.037 Y0.310 F100.00
G0 X-1.500 Y2.598 F100.00
G0 X-0.751 Y-0.433 F100.00
; extra line up
G0 X1.250 Y-2.165 F100.00
; Printing -60deg lines: 3/6
; inner step: 4
G1 X0.000 Y0.000 F100.00
G1 X-0.037 Y-0.310 F100.00
G1 X0.287 Y-0.123 F100.00
G1 X0.287 Y-0.123 F100.00
G1 X-0.037 Y-0.310 F100.00
G1 X-0.037 Y-0.310 F100.00
G1 X0.287 Y-0.123 F100.00
G1 X0.287 Y-0.123 F100.00
G1 X-0.037 Y-0.310 F100.00
G1 X-0.037 Y-0.310 F100.00
G1 X0.287 Y-0.123 F100.00
G1 X0.287 Y-0.123 F100.00
G1 X-0.037 Y-0.310 F100.00
G1 X-0.037 Y-0.310 F100.00
G1 X0.287 Y-0.123 F100.00
G1 X0.287 Y-0.123 F100.00
G1 X-0.037 Y-0.310 F100.00
G0 X1.500 Y-2.598 F100.00
G0 X-0.751 Y-0.433 F100.00
; extra line bottom
G0 X-1.750 Y3.031 F100.00
; Printing -60deg lines: 4/6
; inner step: 4
G1 X0.000 Y0.000 F100.00
G1 X0.037 Y0.310 F100.00
G1 X-0.287 Y0.123 F100.00
G1 X-0.287 Y0.123 F100.00
G1 X0.037 Y0.310 F100.00
G1 X0.037 Y0.310 F100.00
G1 X-0.287 Y0.123 F100.00
G1 X-0.287 Y0.123 F100.00
G1 X0.037 Y0.310 F100.00
G1 X0.037 Y0.310 F100.00
G1 X-0.287 Y0.123 F100.00
G1 X-0.287 Y0.123 F100.00
G1 X0.037 Y0.310 F100.00
G1 X0.037 Y0.310 F100.00
G1 X-0.287 Y0.123 F100.00
G1 X-0.287 Y0.123 F100.00
G1 X0.037 Y0.310 F100.00
G0 X-1.500 Y2.598 F100.00
G0 X-0.751 Y-0.433 F100.00
; extra line up
G0 X1.250 Y-2.165 F100.00
; Printing -60deg lines: 5/6
; inner step: 4
G1 X0.000 Y0.000 F100.00
G1 X-0.037 Y-0.310 F100.00
G1 X0.287 Y-0.123 F100.00
G1 X0.287 Y-0.123 F100.00
G1 X-0.037 Y-0.310 F100.00
G1 X-0.037 Y-0.310 F100.00
G1 X0.287 Y-0.123 F100.00
G1 X0.287 Y-0.123 F100.00
G1 X-0.037 Y-0.310 F100.00
G1 X-0.037 Y-0.310 F100.00
G1 X0.287 Y-0.123 F100.00
G1 X0.287 Y-0.123 F100.00
G1 X-0.037 Y-0.310 F100.00
G1 X-0.037 Y-0.310 F100.00
G1 X0.287 Y-0.123 F100.00
G1 X0.287 Y-0.123 F100.00
G1 X-0.037 Y-0.310 F100.00
G0 X1.500 Y-2.598 F100.00
G0 X-0.751 Y-0.433 F100.00
; extra line bottom
G0 X-1.750 Y3.031 F100.00
; Printing -60deg lines: 6/6
; inner step: 2
G1 X0.000 Y0.000 F100.00
G1 X0.037 Y0.310 F100.00
G1 X-0.287 Y0.123 F100.00
G1 X-0.287 Y0.123 F100.00
G1 X0.037 Y0.310 F100.00
G1 X0.037 Y0.310 F100.00
G1 X-0.287 Y0.123 F100.00
G1 X-0.287 Y0.123 F100.00
G1 X0.037 Y0.310 F100.00
G0 X-1.500 Y2.598 F100.00
G0 X-0.751 Y-0.433 F100.00
; extra line left
G0 X2.250 Y-3.897 F100.00
; END Printing -60deg

; move to top-left corner
G0 X-2.0 F100
G0 Y4.330127018922193 F100
G0 X3.5 F100
G0 X-0.5000000000000001 Y-0.8660254037844386 F100
; START Printing +60deg
; Printing +60deg lines: 1/6
; inner step: 2
G1 X0.000 Y0.000 F100.00
G1 X-0.287 Y-0.123 F100.00
G1 X0.037 Y-0.310 F100.00
G1 X0.037 Y-0.310 F100.00
G1 X-0.287 Y-0.123 F100.00
G1 X-0.287 Y-0.123 F100.00
G1 X0.037 Y-0.310 F100.00
G1 X0.037 Y-0.310 F100.00
G1 X-0.287 Y-0.123 F100.00
G0 X-1.500 Y-2.598 F100.00
G0 X0.751 Y-0.433 F100.00
; extra line left
G0 X0.750 Y1.299 F100.00
; Printing +60deg lines: 2/6
; inner step: 4
G1 X0.000 Y0.000 F100.00
G1 X0.287 Y0.123 F100.00
G1 X-0.037 Y0.310 F100.00
G1 X-0.037 Y0.310 F100.00
G1 X0.287 Y0.123 F100.00
G1 X0.287 Y0.123 F100.00
G1 X-0.037 Y0.310 F100.00
G1 X-0.037 Y0.310 F100.00
G1 X0.287 Y0.123 F100.00
G1 X0.287 Y0.123 F100.00
G1 X-0.037 Y0.310 F100.00
G1 X-0.037 Y0.310 F100.00
G1 X0.287 Y0.123 F100.00
G1 X0.287 Y0.123 F100.00
G1 X-0.037 Y0.310 F100.00
G1 X-0.037 Y0.310 F100.00
G1 X0.287 Y0.123 F100.00
G0 X1.500 Y2.598 F100.00
G0 X0.751 Y-0.433 F100.00
; extra line up
G0 X-1.250 Y-2.165 F100.00
; Printing +60deg lines: 3/6
; inner step: 4
G1 X0.000 Y0.000 F100.00
G1 X-0.287 Y-0.123 F100.00
G1 X0.037 Y-0.310 F100.00
G1 X0.037 Y-0.310 F100.00
G1 X-0.287 Y-0.123 F100.00
G1 X-0.287 Y-0.123 F100.00
G1 X0.037 Y-0.310 F100.00
G1 X0.037 Y-0.310 F100.00
G1 X-0.287 Y-0.123 F100.00
G1 X-0.287 Y-0.123 F100.00
G1 X0.037 Y-0.310 F100.00
G1 X0.037 Y-0.310 F100.00
G1 X-0.287 Y-0.123 F100.00
G1 X-0.287 Y-0.123 F100.00
G1 X0.037 Y-0.310 F100.00
G1 X0.037 Y-0.310 F100.00
G1 X-0.287 Y-0.123 F100.00
G0 X-1.500 Y-2.598 F100.00
G0 X0.751 Y-0.433 F100.00
; extra line bottom
G0 X1.750 Y3.031 F100.00
; Printing +60deg lines: 4/6
; inner step: 4
G1 X0.000 Y0.000 F100.00
G1 X0.287 Y0.123 F100.00
G1 X-0.037 Y0.310 F100.00
G1 X-0.037 Y0.310 F100.00
G1 X0.287 Y0.123 F100.00
G1 X0.287 Y0.123 F100.00
G1 X-0.037 Y0.310 F100.00
G1 X-0.037 Y0.310 F100.00
