; S Triangular
; Generated by generate_s-triangular.py
; CTS: 100
; A: 0.5
; B: 0.375
; pore_size: 2.0
; zero_degrees_length: 4.0
; sixty_degrees_length: 6.0
; Y_repetitions: 4
; X_repetitions: 4
; layers: 10
; total_x: 8.0
; total_y: 8.0
; start gcode
; Relative positioning
G91
; start at bottom-left corner
G0 X0 Y0

; START scaffold 1/1
; Stabilization line
; layer-correction: off
G0 X8.0 F100
G0 Y0.3 F100
G0 X-8.0 F100
G0 Y0.3 F100

G0 X8.0 F100
G0 Y0.3 F100
G0 X-8.0 F100
G0 Y0.3 F100

G0 X8.0 F100
G0 Y0.3 F100
G0 X-8.0 F100
G0 Y0.3 F100

G0 X8.0 F100
G0 Y0.3 F100
G0 X-8.0 F100
G0 Y0.3 F100

G0 X8.0 F100
G0 Y0.3 F100
G0 X-8.0 F100
G0 Y0.3 F100

G0 Y0.6 F100

; layer-correction: on

; START layer 1/10
; current_layer: 0
; START Printing horizontally
G1 X0 F100
G1 X0.5 Y-0.375 F100
G1 X0.5 Y0.375 F100
G1 X0.5 Y0.375 F100
G1 X0.5 Y-0.375 F100
G1 X0.5 Y-0.375 F100
G1 X0.5 Y0.375 F100
G1 X0.5 Y0.375 F100
G1 X0.5 Y-0.375 F100
G1 X0.5 Y-0.375 F100
G1 X0.5 Y0.375 F100
G1 X0.5 Y0.375 F100
G1 X0.5 Y-0.375 F100
G1 X0.5 Y-0.375 F100
G1 X0.5 Y0.375 F100
G1 X0.5 Y0.375 F100
G1 X0.5 Y-0.375 F100
G0 X4.0 F100
G0 Y1.7320508075688772 F100
G0 X-3.0 F100
G1 X0 F100
G1 X-0.5 Y0.375 F100
G1 X-0.5 Y-0.375 F100
G1 X-0.5 Y-0.375 F100
G1 X-0.5 Y0.375 F100
G1 X-0.5 Y0.375 F100
G1 X-0.5 Y-0.375 F100
G1 X-0.5 Y-0.375 F100
G1 X-0.5 Y0.375 F100
G1 X-0.5 Y0.375 F100
G1 X-0.5 Y-0.375 F100
G1 X-0.5 Y-0.375 F100
G1 X-0.5 Y0.375 F100
G1 X-0.5 Y0.375 F100
G1 X-0.5 Y-0.375 F100
G1 X-0.5 Y-0.375 F100
G1 X-0.5 Y0.375 F100
G0 X-5.0 F100
G0 Y1.7320508075688772 F100
G0 X4.0 F100
G1 X0 F100
G1 X0.5 Y-0.375 F100
G1 X0.5 Y0.375 F100
G1 X0.5 Y0.375 F100
G1 X0.5 Y-0.375 F100
G1 X0.5 Y-0.375 F100
G1 X0.5 Y0.375 F100
G1 X0.5 Y0.375 F100
G1 X0.5 Y-0.375 F100
G1 X0.5 Y-0.375 F100
G1 X0.5 Y0.375 F100
G1 X0.5 Y0.375 F100
G1 X0.5 Y-0.375 F100
G1 X0.5 Y-0.375 F100
G1 X0.5 Y0.375 F100
G1 X0.5 Y0.375 F100
G1 X0.5 Y-0.375 F100
G0 X4.0 F100
G0 Y1.7320508075688772 F100
G0 X-3.0 F100
G1 X0 F100
G1 X-0.5 Y0.375 F100
G1 X-0.5 Y-0.375 F100
G1 X-0.5 Y-0.375 F100
G1 X-0.5 Y0.375 F100
G1 X-0.5 Y0.375 F100
G1 X-0.5 Y-0.375 F100
G1 X-0.5 Y-0.375 F100
G1 X-0.5 Y0.375 F100
G1 X-0.5 Y0.375 F100
G1 X-0.5 Y-0.375 F100
G1 X-0.5 Y-0.375 F100
G1 X-0.5 Y0.375 F100
G1 X-0.5 Y0.375 F100
G1 X-0.5 Y-0.375 F100
G1 X-0.5 Y-0.375 F100
G1 X-0.5 Y0.375 F100
G0 X-5.0 F100
G0 Y1.7320508075688772 F100
G0 X4.0 F100
G1 X0 F100
G1 X0.5 Y-0.375 F100
G1 X0.5 Y0.375 F100
G1 X0.5 Y0.375 F100
G1 X0.5 Y-0.375 F100
G1 X0.5 Y-0.375 F100
G1 X0.5 Y0.375 F100
G1 X0.5 Y0.375 F100
G1 X0.5 Y-0.375 F100
G1 X0.5 Y-0.375 F100
G1 X0.5 Y0.375 F100
G1 X0.5 Y0.375 F100
G1 X0.5 Y-0.375 F100
G1 X0.5 Y-0.375 F100
G1 X0.5 Y0.375 F100
G1 X0.5 Y0.375 F100
G1 X0.5 Y-0.375 F100
G1 X0 F100
; END Printing horizontally
; START Printing -60deg
; Printing -60deg lines: 1/6
; inner step: 1
G1 X0.000 Y0.000 F100.00
G1 X-0.075 Y-0.621 F100.00
G1 X0.575 Y-0.246 F100.00
G1 X0.575 Y-0.246 F100.00
G1 X-0.075 Y-0.621 F100.00
G0 X3.000 Y-5.196 F100.00
G0 X-1.501 Y-0.867 F100.00
; extra line right
G0 X-1.500 Y2.598 F100.00
; Printing -60deg lines: 2/6
; inner step: 3
G1 X0.000 Y0.000 F100.00
G1 X0.075 Y0.621 F100.00
G1 X-0.575 Y0.246 F100.00
G1 X-0.575 Y0.246 F100.00
G1 X0.075 Y0.621 F100.00
G1 X0.075 Y0.621 F100.00
G1 X-0.575 Y0.246 F100.00
G1 X-0.575 Y0.246 F100.00
G1 X0.075 Y0.621 F100.00
G1 X0.075 Y0.621 F100.00
G1 X-0.575 Y0.246 F100.00
G1 X-0.575 Y0.246 F100.00
G1 X0.075 Y0.621 F100.00
G0 X-3.000 Y5.196 F100.00
G0 X-1.501 Y-0.867 F100.00
; extra line up
G0 X2.500 Y-4.330 F100.00
; Printing -60deg lines: 3/6
; inner step: 4
G1 X0.000 Y0.000 F100.00
G1 X-0.075 Y-0.621 F100.00
G1 X0.575 Y-0.246 F100.00
G1 X0.575 Y-0.246 F100.00
G1 X-0.075 Y-0.621 F100.00
G1 X-0.075 Y-0.621 F100.00
G1 X0.575 Y-0.246 F100.00
G1 X0.575 Y-0.246 F100.00
G1 X-0.075 Y-0.621 F100.00
G1 X-0.075 Y-0.621 F100.00
G1 X0.575 Y-0.246 F100.00
G1 X0.575 Y-0.246 F100.00
G1 X-0.075 Y-0.621 F100.00
G1 X-0.075 Y-0.621 F100.00
G1 X0.575 Y-0.246 F100.00
G1 X0.575 Y-0.246 F100.00
G1 X-0.075 Y-0.621 F100.00
G0 X3.000 Y-5.196 F100.00
G0 X-1.501 Y-0.867 F100.00
; extra line bottom
G0 X-3.500 Y6.062 F100.00
; Printing -60deg lines: 4/6
; inner step: 4
G1 X0.000 Y0.000 F100.00
G1 X0.075 Y0.621 F100.00
G1 X-0.575 Y0.246 F100.00
G1 X-0.575 Y0.246 F100.00
G1 X0.075 Y0.621 F100.00
G1 X0.075 Y0.621 F100.00
G1 X-0.575 Y0.246 F100.00
G1 X-0.575 Y0.246 F100.00
G1 X0.075 Y0.621 F100.00
G1 X0.075 Y0.621 F100.00
G1 X-0.575 Y0.246 F100.00
G1 X-0.575 Y0.246 F100.00
G1 X0.075 Y0.621 F100.00
G1 X0.075 Y0.621 F100.00
G1 X-0.575 Y0.246 F100.00
G1 X-0.575 Y0.246 F100.00
G1 X0.075 Y0.621 F100.00
G0 X-3.000 Y5.196 F100.00
G0 X-1.501 Y-0.867 F100.00
; extra line up
G0 X2.500 Y-4.330 F100.00
; Printing -60deg lines: 5/6
; inner step: 4
G1 X0.000 Y0.000 F100.00
G1 X-0.075 Y-0.621 F100.00
G1 X0.575 Y-0.246 F100.00
G1 X0.575 Y-0.246 F100.00
G1 X-0.075 Y-0.621 F100.00
G1 X-0.075 Y-0.621 F100.00
G1 X0.575 Y-0.246 F100.00
G1 X0.575 Y-0.246 F100.00
G1 X-0.075 Y-0.621 F100.00
G1 X-0.075 Y-0.621 F100.00
G1 X0.575 Y-0.246 F100.00
G1 X0.575 Y-0.246 F100.00
G1 X-0.075 Y-0.621 F100.00
G1 X-0.075 Y-0.621 F100.00
G1 X0.575 Y-0.246 F100.00
G1 X0.575 Y-0.246 F100.00
G1 X-0.075 Y-0.621 F100.00
G0 X3.000 Y-5.196 F100.00
G0 X-1.501 Y-0.867 F100.00
; extra line bottom
G0 X-3.500 Y6.062 F100.00
; Printing -60deg lines: 6/6
; inner step: 2
G1 X0.000 Y0.000 F100.00
G1 X0.075 Y0.621 F100.00
G1 X-0.575 Y0.246 F100.00
G1 X-0.575 Y0.246 F100.00
G1 X0.075 Y0.621 F100.00
G1 X0.075 Y0.621 F100.00
G1 X-0.575 Y0.246 F100.00
G1 X-0.575 Y0.246 F100.00
G1 X0.075 Y0.621 F100.00
G0 X-3.000 Y5.196 F100.00
G0 X-1.501 Y-0.867 F100.00
; extra line left
G0 X4.500 Y-7.794 F100.00
; END Printing -60deg

; move to top-left corner
G0 X-4.0 F100
G0 Y8.660254037844386 F100
G0 X7.0 F100
G0 X-1.0000000000000002 Y-1.7320508075688772 F100
; START Printing +60deg
; Printing +60deg lines: 1/6
; inner step: 2
G1 X0.000 Y0.000 F100.00
G1 X-0.575 Y-0.246 F100.00
G1 X0.075 Y-0.621 F100.00
G1 X0.075 Y-0.621 F100.00
G1 X-0.575 Y-0.246 F100.00
G1 X-0.575 Y-0.246 F100.00
G1 X0.075 Y-0.621 F100.00
G1 X0.075 Y-0.621 F100.00
G1 X-0.575 Y-0.246 F100.00
G0 X-3.000 Y-5.196 F100.00
G0 X1.501 Y-0.867 F100.00
; extra line left
G0 X1.500 Y2.598 F100.00
; Printing +60deg lines: 2/6
; inner step: 4
G1 X0.000 Y0.000 F100.00
G1 X0.575 Y0.246 F100.00
G1 X-0.075 Y0.621 F100.00
G1 X-0.075 Y0.621 F100.00
G1 X0.575 Y0.246 F100.00
G1 X0.575 Y0.246 F100.00
G1 X-0.075 Y0.621 F100.00
G1 X-0.075 Y0.621 F100.00
G1 X0.575 Y0.246 F100.00
G1 X0.575 Y0.246 F100.00
G1 X-0.075 Y0.621 F100.00
G1 X-0.075 Y0.621 F100.00
G1 X0.575 Y0.246 F100.00
G1 X0.575 Y0.246 F100.00
G1 X-0.075 Y0.621 F100.00
G1 X-0.075 Y0.621 F100.00
G1 X0.575 Y0.246 F100.00
G0 X3.000 Y5.196 F100.00
G0 X1.501 Y-0.867 F100.00
; extra line up
G0 X-2.500 Y-4.330 F100.00
; Printing +60deg lines: 3/6
; inner step: 4
G1 X0.000 Y0.000 F100.00
G1 X-0.575 Y-0.246 F100.00
G1 X0.075 Y-0.621 F100.00
G1 X0.075 Y-0.621 F100.00
G1 X-0.575 Y-0.246 F100.00
G1 X-0.575 Y-0.246 F100.00
G1 X0.075 Y-0.621 F100.00
G1 X0.075 Y-0.621 F100.00
G1 X-0.575 Y-0.246 F100.00
G1 X-0.575 Y-0.246 F100.00
G1 X0.075 Y-0.621 F100.00
G1 X0.075 Y-0.621 F100.00
G1 X-0.575 Y-0.246 F100.00
G1 X-0.575 Y-0.246 F100.00
G1 X0.075 Y-0.621 F100.00
G1 X0.075 Y-0.621 F100.00
G1 X-0.575 Y-0.246 F100.00
G0 X-3.000 Y-5.196 F100.00
G0 X1.501 Y-0.867 F100.00
; extra line bottom
G0 X3.500 Y6.062 F100.00
; Printing +60deg lines: 4/6
; inner step: 4
G1 X0.000 Y0.000 F100.00
G1 X0.575 Y0.246 F100.00
G1 X-0.075 Y0.621 F100.00
G1 X-0.075 Y0.621 F100.00
G1 X0.575 Y0.246 F100.00
G1 X0.575 Y0.246 F100.00
G1 X-0.075 Y0.621 F100.00
G1 X-0.075 Y0.621 F100.00
G1 X0.575 Y0.246 F100.00
G1 X0.575 Y0.246 F100.00
G1 X-0.075 Y0.621 F100.00
G1 X-0.075 Y0.621 F100.00
G1 X0.575 Y0.246 F100.00
G1 X0.575 Y0.246 F100.00
G1 X-0.075 Y0.621 F100.00
G1 X-0.075 Y0.621 F100.00
G1 X0.575 Y0.246 F100.00
G0 X3.000 Y5.196 F100.00
G0 X1.501 Y-0.867 F100.00
; extra line up_corner
G0 X-3.500 Y-6.062 F100.00
; Printing +60deg lines: 5/6
; inner step: 3
G1 X0.000 Y0.000 F100.00
G1 X-0.575 Y-0.246 F100.00
G1 X0.075 Y-0.621 F100.00
G1 X0.075 Y-0.621 F100.00
G1 X-0.575 Y-0.246 F100.00
G1 X-0.575 Y-0.246 F100.00
G1 X0.075 Y-0.621 F100.00
G1 X0.075 Y-0.621 F100.00
G1 X-0.575 Y-0.246 F100.00
G1 X-0.575 Y-0.246 F100.00
G1 X0.075 Y-0.621 F100.00
G1 X0.075 Y-0.621 F100.00
G1 X-0.575 Y-0.246 F100.00
G0 X-3.000 Y-5.196 F100.00
G0 X1.501 Y-0.867 F100.00
; extra line bottom
G0 X3.500 Y6.062 F100.00
; Printing +60deg lines: 6/6
; inner step: 1
G1 X0.000 Y0.000 F100.00
G1 X0.575 Y0.246 F100.00
G1 X-0.075 Y0.621 F100.00
G1 X-0.075 Y0.621 F100.00
G1 X0.575 Y0.246 F100.00
G0 X0.000 Y0.000 F100.00
; move to bottom-left corner
G0 X4.0 F100
G0 Y-4.0 F100
G0 X-17.0 F100
G0 Y2.267949192431123 F100
G0 X4.0 F100

; START layer 2/10
; current_layer: 1
; START Printing horizontally
G1 X0 F100
G1 X0.5 Y-0.375 F100
G1 X0.5 Y0.375 F100
G1 X0.5 Y0.375 F100
G1 X0.5 Y-0.375 F100
G1 X0.5 Y-0.375 F100
G1 X0.5 Y0.375 F100
G1 X0.5 Y0.375 F100
G1 X0.5 Y-0.375 F100
G1 X0.5 Y-0.375 F100
G1 X0.5 Y0.375 F100
G1 X0.5 Y0.375 F100
G1 X0.5 Y-0.375 F100
G1 X0.5 Y-0.375 F100
G1 X0.5 Y0.375 F100
G1 X0.5 Y0.375 F100
G1 X0.5 Y-0.375 F100
G0 X4.0 F100
G0 Y1.7320508075688772 F100
G0 X-3.0 F100
G1 X0 F100
G1 X-0.5 Y0.375 F100
G1 X-0.5 Y-0.375 F100
G1 X-0.5 Y-0.375 F100
G1 X-0.5 Y0.375 F100
G1 X-0.5 Y0.375 F100
G1 X-0.5 Y-0.375 F100
G1 X-0.5 Y-0.375 F100
G1 X-0.5 Y0.375 F100
G1 X-0.5 Y0.375 F100
G1 X-0.5 Y-0.375 F100
G1 X-0.5 Y-0.375 F100
G1 X-0.5 Y0.375 F100
G1 X-0.5 Y0.375 F100
G1 X-0.5 Y-0.375 F100
G1 X-0.5 Y-0.375 F100
G1 X-0.5 Y0.375 F100
G0 X-5.0 F100
G0 Y1.7320508075688772 F100
G0 X4.0 F100
G1 X0 F100
G1 X0.5 Y-0.375 F100
G1 X0.5 Y0.375 F100
G1 X0.5 Y0.375 F100
G1 X0.5 Y-0.375 F100
G1 X0.5 Y-0.375 F100
G1 X0.5 Y0.375 F100
G1 X0.5 Y0.375 F100
G1 X0.5 Y-0.375 F100
G1 X0.5 Y-0.375 F100
G1 X0.5 Y0.375 F100
G1 X0.5 Y0.375 F100
G1 X0.5 Y-0.375 F100
G1 X0.5 Y-0.375 F100
G1 X0.5 Y0.375 F100
G1 X0.5 Y0.375 F100
G1 X0.5 Y-0.375 F100
G0 X4.0 F100
G0 Y1.7320508075688772 F100
G0 X-3.0 F100
G1 X0 F100
G1 X-0.5 Y0.375 F100
G1 X-0.5 Y-0.375 F100
G1 X-0.5 Y-0.375 F100
G1 X-0.5 Y0.375 F100
G1 X-0.5 Y0.375 F100
G1 X-0.5 Y-0.375 F100
G1 X-0.5 Y-0.375 F100
G1 X-0.5 Y0.375 F100
G1 X-0.5 Y0.375 F100
G1 X-0.5 Y-0.375 F100
G1 X-0.5 Y-0.375 F100
G1 X-0.5 Y0.375 F100
G1 X-0.5 Y0.375 F100
G1 X-0.5 Y-0.375 F100
G1 X-0.5 Y-0.375 F100
G1 X-0.5 Y0.375 F100
G0 X-5.0 F100
G0 Y1.7320508075688772 F100
G0 X4.0 F100
G1 X0 F100
G1 X0.5 Y-0.375 F100
G1 X0.5 Y0.375 F100
G1 X0.5 Y0.375 F100
G1 X0.5 Y-0.375 F100
G1 X0.5 Y-0.375 F100
G1 X0.5 Y0.375 F100
G1 X0.5 Y0.375 F100
G1 X0.5 Y-0.375 F100
G1 X0.5 Y-0.375 F100
G1 X0.5 Y0.375 F100
G1 X0.5 Y0.375 F100
G1 X0.5 Y-0.375 F100
G1 X0.5 Y-0.375 F100
G1 X0.5 Y0.375 F100
G1 X0.5 Y0.375 F100
G1 X0.5 Y-0.375 F100
G1 X0 F100
; END Printing horizontally
; START Printing -60deg
; Printing -60deg lines: 1/6
; inner step: 1
G1 X0.000 Y0.000 F100.00
G1 X-0.075 Y-0.621 F100.00
G1 X0.575 Y-0.246 F100.00
G1 X0.575 Y-0.246 F100.00
G1 X-0.075 Y-0.621 F100.00
G0 X3.000 Y-5.196 F100.00
G0 X-1.501 Y-0.867 F100.00
; extra line right
G0 X-1.500 Y2.598 F100.00
; Printing -60deg lines: 2/6
; inner step: 3
G1 X0.000 Y0.000 F100.00
G1 X0.075 Y0.621 F100.00
G1 X-0.575 Y0.246 F100.00
G1 X-0.575 Y0.246 F100.00
G1 X0.075 Y0.621 F100.00
G1 X0.075 Y0.621 F100.00
G1 X-0.575 Y0.246 F100.00
G1 X-0.575 Y0.246 F100.00
G1 X0.075 Y0.621 F100.00
G1 X0.075 Y0.621 F100.00
G1 X-0.575 Y0.246 F100.00
G1 X-0.575 Y0.246 F100.00
G1 X0.075 Y0.621 F100.00
G0 X-3.000 Y5.196 F100.00
G0 X-1.501 Y-0.867 F100.00
; extra line up
G0 X2.500 Y-4.330 F100.00
; Printing -60deg lines: 3/6
; inner step: 4
G1 X0.000 Y0.000 F100.00
G1 X-0.075 Y-0.621 F100.00
G1 X0.575 Y-0.246 F100.00
G1 X0.575 Y-0.246 F100.00
G1 X-0.075 Y-0.621 F100.00
G1 X-0.075 Y-0.621 F100.00
G1 X0.575 Y-0.246 F100.00
G1 X0.575 Y-0.246 F100.00
G1 X-0.075 Y-0.621 F100.00
G1 X-0.075 Y-0.621 F100.00
G1 X0.575 Y-0.246 F100.00
G1 X0.575 Y-0.246 F100.00
G1 X-0.075 Y-0.621 F100.00
G1 X-0.075 Y-0.621 F100.00
G1 X0.575 Y-0.246 F100.00
G1 X0.575 Y-0.246 F100.00
G1 X-0.075 Y-0.621 F100.00
G0 X3.000 Y-5.196 F100.00
G0 X-1.501 Y-0.867 F100.00
; extra line bottom
G0 X-3.500 Y6.062 F100.00
; Printing -60deg lines: 4/6
; inner step: 4
G1 X0.000 Y0.000 F100.00
G1 X0.075 Y0.621 F100.00
G1 X-0.575 Y0.246 F100.00
G1 X-0.575 Y0.246 F100.00
G1 X0.075 Y0.621 F100.00
G1 X0.075 Y0.621 F100.00
G1 X-0.575 Y0.246 F100.00
G1 X-0.575 Y0.246 F100.00
G1 X0.075 Y0.621 F100.00
G1 X0.075 Y0.621 F100.00
G1 X-0.575 Y0.246 F100.00
G1 X-0.575 Y0.246 F100.00
G1 X0.075 Y0.621 F100.00
G1 X0.075 Y0.621 F100.00
G1 X-0.575 Y0.246 F100.00
G1 X-0.575 Y0.246 F100.00
G1 X0.075 Y0.621 F100.00
G0 X-3.000 Y5.196 F100.00
G0 X-1.501 Y-0.867 F100.00
; extra line up
G0 X2.500 Y-4.330 F100.00
; Printing -60deg lines: 5/6
; inner step: 4
G1 X0.000 Y0.000 F100.00
G1 X-0.075 Y-0.621 F100.00
G1 X0.575 Y-0.246 F100.00
G1 X0.575 Y-0.246 F100.00
G1 X-0.075 Y-0.621 F100.00
G1 X-0.075 Y-0.621 F100.00
G1 X0.575 Y-0.246 F100.00
G1 X0.575 Y-0.246 F100.00
G1 X-0.075 Y-0.621 F100.00
G1 X-0.075 Y-0.621 F100.00
G1 X0.575 Y-0.246 F100.00
G1 X0.575 Y-0.246 F100.00
G1 X-0.075 Y-0.621 F100.00
G1 X-0.075 Y-0.621 F100.00
G1 X0.575 Y-0.246 F100.00
G1 X0.575 Y-0.246 F100.00
G1 X-0.075 Y-0.621 F100.00
G0 X3.000 Y-5.196 F100.00
G0 X-1.501 Y-0.867 F100.00
; extra line bottom
G0 X-3.500 Y6.062 F100.00
; Printing -60deg lines: 6/6
; inner step: 2
G1 X0.000 Y0.000 F100.00
G1 X0.075 Y0.621 F100.00
G1 X-0.575 Y0.246 F100.00
G1 X-0.575 Y0.246 F100.00
G1 X0.075 Y0.621 F100.00
G1 X0.075 Y0.621 F100.00
G1 X-0.575 Y0.246 F100.00
G1 X-0.575 Y0.246 F100.00
G1 X0.075 Y0.621 F100.00
G0 X-3.000 Y5.196 F100.00
G0 X-1.501 Y-0.867 F100.00
; extra line left
G0 X4.500 Y-7.794 F100.00
; END Printing -60deg

; move to top-left corner
G0 X-4.0 F100
G0 Y8.660254037844386 F100
G0 X7.0 F100
G0 X-1.0000000000000002 Y-1.7320508075688772 F100
; START Printing +60deg
; Printing +60deg lines: 1/6
; inner step: 2
G1 X0.000 Y0.000 F100.00
G1 X-0.575 Y-0.246 F100.00
G1 X0.075 Y-0.621 F100.00
G1 X0.075 Y-0.621 F100.00
G1 X-0.575 Y-0.246 F100.00
G1 X-0.575 Y-0.246 F100.00
G1 X0.075 Y-0.621 F100.00
G1 X0.075 Y-0.621 F100.00
G1 X-0.575 Y-0.246 F100.00
G0 X-3.000 Y-5.196 F100.00
G0 X1.501 Y-0.867 F100.00
; extra line left
G0 X1.500 Y2.598 F100.00
; Printing +60deg lines: 2/6
; inner step: 4
G1 X0.000 Y0.000 F100.00
G1 X0.575 Y0.246 F100.00
G1 X-0.075 Y0.621 F100.00
G1 X-0.075 Y0.621 F100.00
G1 X0.575 Y0.246 F100.00
G1 X0.575 Y0.246 F100.00
G1 X-0.075 Y0.621 F100.00
G1 X-0.075 Y0.621 F100.00
G1 X0.575 Y0.246 F100.00
G1 X0.575 Y0.246 F100.00
G1 X-0.075 Y0.621 F100.00
G1 X-0.075 Y0.621 F100.00
G1 X0.575 Y0.246 F100.00
G1 X0.575 Y0.246 F100.00
G1 X-0.075 Y0.621 F100.00
G1 X-0.075 Y0.621 F100.00
G1 X0.575 Y0.246 F100.00
G0 X3.000 Y5.196 F100.00
G0 X1.501 Y-0.867 F100.00
; extra line up
G0 X-2.500 Y-4.330 F100.00
; Printing +60deg lines: 3/6
; inner step: 4
G1 X0.000 Y0.000 F100.00
G1 X-0.575 Y-0.246 F100.00
G1 X0.075 Y-0.621 F100.00
G1 X0.075 Y-0.621 F100.00
G1 X-0.575 Y-0.246 F100.00
G1 X-0.575 Y-0.246 F100.00
G1 X0.075 Y-0.621 F100.00
G1 X0.075 Y-0.621 F100.00
G1 X-0.575 Y-0.246 F100.00
G1 X-0.575 Y-0.246 F100.00
G1 X0.075 Y-0.621 F100.00
G1 X0.075 Y-0.621 F100.00
G1 X-0.575 Y-0.246 F100.00
G1 X-0.575 Y-0.246 F100.00
G1 X0.075 Y-0.621 F100.00
G1 X0.075 Y-0.621 F100.00
G1 X-0.575 Y-0.246 F100.00
G0 X-3.000 Y-5.196 F100.00
G0 X1.501 Y-0.867 F100.00
; extra line bottom
G0 X3.500 Y6.062 F100.00
; Printing +60deg lines: 4/6
; inner step: 4
G1 X0.000 Y0.000 F100.00
G1 X0.575 Y0.246 F100.00
G1 X-0.075 Y0.621 F100.00
G1 X-0.075 Y0.621 F100.00
G1 X0.575 Y0.246 F100.00
G1 X0.575 Y0.246 F100.00
G1 X-0.075 Y0.621 F100.00
G1 X-0.075 Y0.621 F100.00
G1 X0.575 Y0.246 F100.00
G1 X0.575 Y0.246 F100.00
G1 X-0.075 Y0.621 F100.00
G1 X-0.075 Y0.621 F100.00
G1 X0.575 Y0.246 F100.00
G1 X0.575 Y0.246 F100.00
G1 X-0.075 Y0.621 F100.00
G1 X-0.075 Y0.621 F100.00
G1 X0.575 Y0.246 F100.00
G0 X3.000 Y5.196 F100.00
G0 X1.501 Y-0.867 F100.00
; extra line up_corner
G0 X-3.500 Y-6.062 F100.00
